dk0113-Y/RRL_test/rounds/round_0001/artifacts/logs/train_steps.csv
budget_mode,env_steps,episode_idx,train_episode_idx,completed_train_episodes,replay_size,epsilon,loss,q_mean,target_q_mean,td_abs_mean,grad_norm,learner_steps,recent_mean_reward,recent_mean_coverage,recent_success_rate,recent_mean_episode_length,recent_mean_repeat_visit_ratio,recent_accessible_block_count,recent_total_accessible_unknown_area,recent_total_frontier_cluster_count,recent_mean_block_area,recent_local_frontier_coverage,recent_local_frontier_block_area_mean,recent_value_total_block_count_before_cap,recent_value_packed_block_count,recent_value_truncated_block_count,recent_value_block_cap_hit_flag,recent_value_total_entry_count_before_cap,recent_value_packed_entry_count,recent_value_truncated_entry_count,recent_value_entry_cap_hit_block_count,recent_value_entry_cap_hit_flag,recent_value_max_frontier_clusters_per_block,recent_value_mean_frontier_clusters_per_block,recent_info_reward_sum,recent_step_penalty_sum,recent_recent_revisit_penalty_sum,recent_turn_penalty_sum,recent_timeout_penalty_sum,recent_terminal_bonus_sum,recent_delta_empty_sum,recent_delta_obstacle_sum,recent_empty_info_gain_sum,recent_obstacle_info_gain_sum,recent_weighted_obstacle_info_gain_sum,recent_weighted_info_gain_sum,recent_empty_info_reward_sum,recent_obstacle_info_reward_sum,recent_obstacle_info_contribution_ratio,recent_recent_revisit_trigger_count,recent_stall_trigger_count,recent_zero_info_step_count,recent_turn_ge_90_count,recent_turn_135_count,recent_turn_180_count,recent_turn_penalty_weight_sum,recent_timeout_flag
env_steps,4512,7,7,1,4510,0.9822033333333333,0.23432868719100952,0.0409744456410408,0.18510377407073975,0.4799743890762329,0.7357466220855713,64,10.243002891540527,0.4542856812477112,0.0,600.0,0.6270501017570496,2.2250001430511475,425.00567626953125,8.566190719604492,244.07945251464844,0.029126983135938644,0.6093371510505676,2.2250001430511475,2.2250001430511475,0.0,0.0,8.566190719604492,8.23904800415039,0.3271428644657135,0.18333332240581512,0.18333332240581512,6.17809534072876,4.778440952301025,62.500144958496094,-12.0,-20.514284133911133,-11.742856979370117,-8.0,0.0,627.7142944335938,107.14286041259766,19.980764389038086,3.4104630947113037,0.8526157736778259,20.833383560180664,59.942298889160156,2.557847261428833,0.04131319001317024,205.14285278320312,310.0,492.71429443359375,387.71429443359375,158.2857208251953,79.28571319580078,234.85714721679688,1.0
env_steps,5008,8,8,2,5006,0.98024,0.08398712426424026,0.10213042795658112,0.06398102641105652,0.28592029213905334,1.1683552265167236,126,5.712924957275391,0.4308624863624573,0.0,600.0,0.6435108184814453,2.190000057220459,414.6112365722656,8.449790954589844,235.98001098632812,0.029319725930690765,0.6069069504737854,2.190000057220459,2.190000057220459,0.0,0.0,8.449790954589844,8.163541793823242,0.2862499952316284,0.16041666269302368,0.16041666269302368,6.030416488647461,4.681344032287598,58.367088317871094,-12.0,-20.8125,-11.841667175292969,-8.0,0.0,585.125,104.375,18.625106811523438,3.322359561920166,0.8305898904800415,19.455698013305664,55.87532424926758,2.491769552230835,0.04476623237133026,208.125,323.25,497.75,390.125,158.625,80.875,236.8333282470703,1.0
env_steps,5504,9,9,3,5502,0.9782766666666667,0.08546429872512817,0.05514733865857124,0.14775100350379944,0.30191606283187866,1.7403144836425781,188,7.044319152832031,0.43815553188323975,0.0,600.0,0.63431316614151,2.063518524169922,423.86590576171875,7.924073219299316,263.6829833984375,0.028594940900802612,0.6287441253662109,2.063518524169922,2.063518524169922,0.0,0.0,7.924073219299316,7.6696295738220215,0.2544444501399994,0.14259259402751923,0.14259259402751923,5.767777919769287,4.560515403747559,59.52394485473633,-12.0,-20.688888549804688,-11.790740966796875,-8.0,0.0,597.4444580078125,103.55555725097656,19.017248153686523,3.2962758541107178,0.8240689635276794,19.84131622314453,57.05174255371094,2.4722068309783936,0.043533191084861755,206.88888549804688,321.4444580078125,497.0,389.1111145019531,159.6666717529297,79.33333587646484,235.81480407714844,1.0
env_steps,6000,10,10,4,6000,0.9763133333333334,0.08181306719779968,0.12810303270816803,0.16678796708583832,0.27980536222457886,1.6862223148345947,250,6.19317626953125,0.43080997467041016,0.0,600.0,0.6369384527206421,2.1636667251586914,422.61285400390625,8.186332702636719,250.91775512695312,0.027546484023332596,0.6015394330024719,2.1636667251586914,2.1636667251586914,0.0,0.0,8.186332702636719,7.957333564758301,0.2290000021457672,0.12833333015441895,0.12833333015441895,5.743500232696533,4.452561378479004,58.63984298706055,-12.0,-20.619998931884766,-11.826666831970215,-8.0,0.0,588.2000122070312,103.5,18.72298812866211,3.2945075035095215,0.8236268758773804,19.546615600585938,56.16896438598633,2.4708805084228516,0.044031497091054916,206.1999969482422,325.0,497.5,389.70001220703125,161.10000610351562,79.4000015258789,236.5333251953125,1.0
env_steps,6512,10,10,4,6510,0.9742866666666666,0.06246410310268402,0.09093157947063446,0.10091130435466766,0.2537808418273926,1.3338450193405151,314,6.19317626953125,0.43080997467041016,0.0,600.0,0.6369384527206421,2.1636667251586914,422.61285400390625,8.186332702636719,250.91775512695312,0.027546484023332596,0.6015394330024719,2.1636667251586914,2.1636667251586914,0.0,0.0,8.186332702636719,7.957333564758301,0.2290000021457672,0.12833333015441895,0.12833333015441895,5.743500232696533,4.452561378479004,58.63984298706055,-12.0,-20.619998931884766,-11.826666831970215,-8.0,0.0,588.2000122070312,103.5,18.72298812866211,3.2945075035095215,0.8236268758773804,19.546615600585938,56.16896438598633,2.4708805084228516,0.044031497091054916,206.1999969482422,325.0,497.5,389.70001220703125,161.10000610351562,79.4000015258789,236.5333251953125,1.0
env_steps,7008,11,11,5,7006,0.9723233333333333,0.16798226535320282,0.06248130649328232,-0.04625251889228821,0.36134839057922363,1.8866745233535767,376,5.206899642944336,0.42837268114089966,0.0,600.0,0.6372711658477783,2.1162121295928955,416.2360534667969,7.978938579559326,249.64859008789062,0.02699889987707138,0.6068064570426941,2.1162121295928955,2.1162121295928955,0.0,0.0,7.978938579559326,7.770757675170898,0.20818181335926056,0.11666666716337204,0.11666666716337204,5.629848480224609,4.408919334411621,57.97508239746094,-12.0,-20.872726440429688,-11.895455360412598,-8.0,0.0,582.0,100.45454406738281,18.525634765625,3.1975677013397217,0.7993919253349304,19.325029373168945,55.576904296875,2.3981757164001465,0.04298846423625946,208.72727966308594,328.18182373046875,498.18182373046875,390.18182373046875,161.90908813476562,80.81818389892578,237.90908813476562,1.0
env_steps,7504,12,12,6,7502,0.97036,0.07357687503099442,0.07553479820489883,0.09895218163728714,0.26274293661117554,1.7596732378005981,438,6.045854091644287,0.4342832863330841,0.0,600.0,0.6376871466636658,2.1363890171051025,427.5962829589844,8.153332710266113,250.71307373046875,0.027824386954307556,0.6062824726104736,2.1363890171051025,2.1363890171051025,0.0,0.0,8.153332710266113,7.960277557373047,0.19305555522441864,0.10902777314186096,0.10902777314186096,5.727916717529297,4.423546314239502,58.73612976074219,-12.0,-20.82499885559082,-11.865279197692871,-8.0,0.0,589.5833129882812,102.0,18.767019271850586,3.2467610836029053,0.8116902709007263,19.578712463378906,56.30105972290039,2.435070753097534,0.04293389990925789,208.25,330.4166564941406,498.5,389.5833435058594,162.1666717529297,80.08333587646484,237.30555725097656,1.0
env_steps,8000,13,13,7,7998,0.9683966666666667,0.15859255194664001,0.07384032011032104,0.01979067176580429,0.33979374170303345,1.6569677591323853,500,5.828005790710449,0.43107688426971436,0.0,600.0,0.6373991370201111,2.1023077964782715,415.06976318359375,8.033461570739746,246.65615844726562,0.028433628380298615,0.6140627861022949,2.1023077964782715,2.1023077964782715,0.0,0.0,8.033461570739746,7.855256080627441,0.17820511758327484,0.10064101964235306,0.10064101964235306,5.685640811920166,4.439235210418701,58.52800750732422,-12.0,-20.846153259277344,-11.853846549987793,-8.0,0.0,587.3846435546875,102.07691955566406,18.697032928466797,3.249209403991699,0.8123023509979248,19.509336471557617,56.09109878540039,2.4369070529937744,0.043007127940654755,208.46153259277344,323.76922607421875,498.5384521484375,389.4615478515625,161.0,80.38461303710938,237.07691955566406,1.0
env_steps,8512,14,14,8,8510,0.96637,0.11111728847026825,-0.014466513879597187,0.09754620492458344,0.28906357288360596,1.3640199899673462,564,5.45846700668335,0.42801424860954285,0.0,600.0,0.6377465128898621,2.116785764694214,423.2853698730469,8.207976341247559,251.68234252929688,0.028806282207369804,0.6181785464286804,2.116785764694214,2.116785764694214,0.0,0.0,8.207976341247559,7.9935712814331055,0.21440474689006805,0.12666666507720947,0.12666666507720947,5.884047508239746,4.562821388244629,58.098941802978516,-12.0,-20.7785701751709,-11.861905097961426,-8.0,0.0,582.4285888671875,103.92857360839844,18.539278030395508,3.3081493377685547,0.8270373344421387,19.366315841674805,55.617828369140625,2.481112003326416,0.044091034680604935,207.7857208251953,323.6428527832031,498.5,390.0,161.42857360839844,80.14286041259766,237.2380828857422,1.0
env_steps,9008,15,15,9,9006,0.9644066666666666,0.08825404196977615,-0.09786204993724823,-0.039850495755672455,0.2755052149295807,1.4996380805969238,626,4.850733757019043,0.425173282623291,0.0,600.0,0.6368274688720703,2.14377760887146,417.8016662597656,8.462444305419922,245.53343200683594,0.028599392622709274,0.6229385733604431,2.14377760887146,2.14377760887146,0.0,0.0,8.462444305419922,8.123332977294922,0.3391111195087433,0.17144444584846497,0.17144444584846497,6.152777671813965,4.611114978790283,57.30851364135742,-12.0,-20.646665573120117,-11.811111450195312,-8.0,0.0,574.2666625976562,103.46666717529297,18.279476165771484,3.2934463024139404,0.8233615756034851,19.10283851623535,54.83842468261719,2.4700849056243896,0.04449012503027916,206.46665954589844,322.6666564941406,498.5333251953125,389.0,160.60000610351562,79.53333282470703,236.2222137451172,1.0
env_steps,9504,15,15,9,9502,0.9624433333333333,0.1093631237745285,0.13052690029144287,0.16304481029510498,0.29069072008132935,2.732578992843628,688,4.850733757019043,0.425173282623291,0.0,600.0,0.6368274688720703,2.14377760887146,417.8016662597656,8.462444305419922,245.53343200683594,0.028599392622709274,0.6229385733604431,2.14377760887146,2.14377760887146,0.0,0.0,8.462444305419922,8.123332977294922,0.3391111195087433,0.17144444584846497,0.17144444584846497,6.152777671813965,4.611114978790283,57.30851364135742,-12.0,-20.646665573120117,-11.811111450195312,-8.0,0.0,574.2666625976562,103.46666717529297,18.279476165771484,3.2934463024139404,0.8233615756034851,19.10283851623535,54.83842468261719,2.4700849056243896,0.04449012503027916,206.46665954589844,322.6666564941406,498.5333251953125,389.0,160.60000610351562,79.53333282470703,236.2222137451172,1.0
env_steps,10000,16,16,10,9998,0.96048,0.04171949625015259,0.12477903068065643,0.10111524164676666,0.2180636078119278,1.7095816135406494,750,7.216413497924805,0.4358312487602234,0.0,600.0,0.6314476132392883,2.1259374618530273,423.4714660644531,8.368436813354492,252.1434783935547,0.0289606973528862,0.6393828392028809,2.1259374618530273,2.1259374618530273,0.0,0.0,8.368436813354492,8.047708511352539,0.32072916626930237,0.16354167461395264,0.16354167461395264,6.142083168029785,4.6273193359375,59.50703430175781,-12.0,-20.543750762939453,-11.746875762939453,-8.0,0.0,596.5625,106.375,18.989173889160156,3.386021375656128,0.846505343914032,19.83568000793457,56.96752166748047,2.539515972137451,0.044129472225904465,205.4375,317.5,495.8125,386.625,159.3125,79.4375,234.9375,1.0
env_steps,10512,17,17,11,10510,0.9584533333333334,0.1154409795999527,0.02255053073167801,0.10975771397352219,0.31452810764312744,1.2715266942977905,814,8.24312973022461,0.4411705732345581,0.0,600.0,0.6243516206741333,2.1087253093719482,428.9978332519531,8.511763572692871,256.1363525390625,0.02904028445482254,0.6487710475921631,2.1087253093719482,2.1087253093719482,0.0,0.0,8.511763572692871,8.122058868408203,0.3897058963775635,0.19774509966373444,0.19774509966373444,6.329999923706055,4.755973815917969,60.291168212890625,-12.0,-20.358823776245117,-11.689216613769531,-8.0,0.0,603.941162109375,109.70587921142578,19.224044799804688,3.492046594619751,0.8730116486549377,20.097057342529297,57.67213439941406,2.619035005569458,0.044676274061203,203.58824157714844,311.70587158203125,493.4705810546875,385.4705810546875,159.5294189453125,78.17646789550781,233.7843017578125,1.0
env_steps,11008,18,18,12,11006,0.95649,0.12436792999505997,0.05667387321591377,0.09355170279741287,0.30999767780303955,2.015947103500366,876,7.5772247314453125,0.43621110916137695,0.0,600.0,0.6307080984115601,2.049351692199707,430.0338134765625,8.510184288024902,266.3952941894531,0.029352691024541855,0.6674886345863342,2.049351692199707,2.049351692199707,0.0,0.0,8.510184288024902,8.103147506713867,0.40703704953193665,0.22138889133930206,0.22138889133930206,6.445463180541992,4.954299449920654,59.61148452758789,-12.0,-20.350000381469727,-11.684260368347168,-8.0,0.0,597.1666870117188,108.33333587646484,19.008403778076172,3.448357105255127,0.8620892763137817,19.870494842529297,57.02521514892578,2.5862677097320557,0.04454012215137482,203.5,315.77777099609375,495.0,385.22222900390625,159.5,78.16666412353516,233.68516540527344,1.0
env_steps,11504,19,19,13,11502,0.9545266666666666,0.07815819978713989,0.17168867588043213,0.18483449518680573,0.28397977352142334,2.0326647758483887,938,9.356581687927246,0.4441210627555847,0.0,600.0,0.6240476965904236,2.0785086154937744,438.34466552734375,8.562806129455566,268.561279296875,0.02937900461256504,0.6655705571174622,2.0785086154937744,2.0785086154937744,0.0,0.0,8.562806129455566,8.167280197143555,0.39552631974220276,0.21964913606643677,0.21964913606643677,6.4927191734313965,4.949947357177734,61.20219421386719,-12.0,-20.200000762939453,-11.645614624023438,-8.0,0.0,613.0,111.63157653808594,19.51239585876465,3.5533435344696045,0.8883358836174011,20.400732040405273,58.53718566894531,2.6650075912475586,0.04458761587738991,202.0,312.52630615234375,492.6842041015625,384.631591796875,159.26315307617188,77.42105102539062,232.91226196289062,1.0
env_steps,12000,20,20,14,12000,0.9525633333333333,0.05445608124136925,0.1167374849319458,0.12259878218173981,0.23631800711154938,2.2666735649108887,1000,9.20286750793457,0.44403499364852905,0.0,600.0,0.62570720911026,2.0298333168029785,436.83428955078125,8.564748764038086,275.0304870605469,0.029113758355379105,0.6791223287582397,2.0298333168029785,2.0298333168029785,0.0,0.0,8.564748764038086,8.157249450683594,0.4075000286102295,0.2290000170469284,0.2290000170469284,6.58841609954834,5.114144325256348,60.93286895751953,-12.0,-20.10000228881836,-11.630000114440918,-8.0,0.0,610.7000122070312,109.55000305175781,19.43918228149414,3.4870848655700684,0.8717712163925171,20.310956954956055,58.31755447387695,2.6153135299682617,0.04385524243116379,201.0,313.6499938964844,493.3500061035156,384.04998779296875,159.5500030517578,77.0999984741211,232.5999755859375,1.0
env_steps,12512,20,20,14,12510,0.9505366666666667,0.2873484492301941,0.41873443126678467,0.5516989827156067,0.5540681481361389,3.9714460372924805,1064,9.20286750793457,0.44403499364852905,0.0,600.0,0.62570720911026,2.0298333168029785,436.83428955078125,8.564748764038086,275.0304870605469,0.029113758355379105,0.6791223287582397,2.0298333168029785,2.0298333168029785,0.0,0.0,8.564748764038086,8.157249450683594,0.4075000286102295,0.2290000170469284,0.2290000170469284,6.58841609954834,5.114144325256348,60.93286895751953,-12.0,-20.10000228881836,-11.630000114440918,-8.0,0.0,610.7000122070312,109.55000305175781,19.43918228149414,3.4870848655700684,0.8717712163925171,20.310956954956055,58.31755447387695,2.6153135299682617,0.04385524243116379,201.0,313.6499938964844,493.3500061035156,384.04998779296875,159.5500030517578,77.0999984741211,232.5999755859375,1.0
env_steps,13008,21,21,15,13006,0.9485733333333334,0.15510252118110657,0.40347182750701904,0.4351327419281006,0.3961639404296875,3.166576385498047,1126,10.274632453918457,0.4485380947589874,0.0,600.0,0.6207907795906067,2.064126968383789,429.704345703125,8.48515796661377,267.489013671875,0.02913220413029194,0.6634075045585632,2.064126968383789,2.064126968383789,0.0,0.0,8.48515796661377,8.097063064575195,0.38809525966644287,0.21809525787830353,0.21809525787830353,6.456587314605713,5.002339839935303,62.03177261352539,-12.0,-20.147621154785156,-11.60952377319336,-8.0,0.0,621.6190185546875,111.9047622680664,19.786746978759766,3.562039375305176,0.890509843826294,20.677261352539062,59.36024856567383,2.6715292930603027,0.04391848295927048,201.4761962890625,310.952392578125,492.3333435058594,383.4285583496094,158.85714721679688,77.14286041259766,232.19046020507812,1.0
env_steps,13504,22,22,16,13502,0.94661,0.18980126082897186,0.29412341117858887,0.35877755284309387,0.423564076423645,2.9149680137634277,1188,9.67336654663086,0.4481000006198883,0.0,600.0,0.6232038140296936,2.0763635635375977,426.9949951171875,8.417726516723633,263.4798583984375,0.02935941144824028,0.6595264077186584,2.0763635635375977,2.0763635635375977,0.0,0.0,8.417726516723633,8.047272682189941,0.3704545795917511,0.20818184316158295,0.20818184316158295,6.3899245262146,4.927436828613281,61.67109298706055,-12.0,-20.35000228881836,-11.647727012634277,-8.0,0.0,617.9091186523438,111.63636016845703,19.668655395507812,3.5534958839416504,0.8883739709854126,20.55703353881836,59.0059700012207,2.6651217937469482,0.044048480689525604,203.5,311.8636474609375,493.2727355957031,383.9090881347656,158.31817626953125,78.31818389892578,232.95452880859375,1.0
env_steps,14000,23,23,17,13998,0.9446466666666666,0.13912144303321838,0.37480029463768005,0.3531845211982727,0.3843762278556824,3.240950584411621,1250,10.226065635681152,0.4519912898540497,0.0,600.0,0.6206323504447937,2.0767388343811035,425.8534851074219,8.419347763061523,261.3451843261719,0.02939022146165371,0.6619470715522766,2.0767388343811035,2.0767388343811035,0.0,0.0,8.419347763061523,8.063623428344727,0.35572466254234314,0.2005072683095932,0.2005072683095932,6.349493503570557,4.912512302398682,62.16592025756836,-12.0,-20.304349899291992,-11.635507583618164,-8.0,0.0,623.1304321289062,111.47826385498047,19.834856033325195,3.5484633445739746,0.8871158361434937,20.721975326538086,59.50457000732422,2.6613473892211914,0.043667856603860855,203.04347229003906,309.7826232910156,492.4347839355469,384.1739196777344,158.6521759033203,77.65217590332031,232.7101287841797,1.0
env_steps,14512,24,24,18,14510,0.94262,0.18729811906814575,0.42665451765060425,0.45782598853111267,0.4518696069717407,3.328723430633545,1314,10.02557373046875,0.4508917033672333,0.0,600.0,0.6184137463569641,2.106736183166504,425.020751953125,8.475693702697754,257.0905456542969,0.029113128781318665,0.6613872051239014,2.106736183166504,2.106736183166504,0.0,0.0,8.475693702697754,8.134791374206543,0.34090280532836914,0.19215278327465057,0.19215278327465057,6.37666654586792,4.8648786544799805,61.954044342041016,-12.0,-20.295833587646484,-11.63263988494873,-8.0,0.0,620.875,111.625,19.763065338134766,3.5531342029571533,0.8882835507392883,20.651348114013672,59.2891960144043,2.6648504734039307,0.04385240003466606,202.9583282470703,310.4166564941406,492.7083435058594,383.9583435058594,157.8333282470703,78.08333587646484,232.6527862548828,1.0
env_steps,15008,25,25,19,15006,0.9406566666666667,0.15648138523101807,0.3468179702758789,0.4653216004371643,0.37941721081733704,2.9129464626312256,1376,10.36004638671875,0.4516320526599884,0.0,600.0,0.6200998425483704,2.1036667823791504,433.0848388671875,8.430999755859375,259.25982666015625,0.029158882796764374,0.6737297773361206,2.1036667823791504,2.1036667823791504,0.0,0.0,8.430999755859375,8.102399826049805,0.32860004901885986,0.1858000010251999,0.1858000010251999,6.372866153717041,4.816105842590332,62.1773796081543,-12.0,-20.20800018310547,-11.609333038330078,-8.0,0.0,623.280029296875,111.36000061035156,19.839618682861328,3.544699192047119,0.8861747980117798,20.725793838500977,59.518856048583984,2.65852427482605,0.04358292743563652,202.0800018310547,310.32000732421875,492.760009765625,383.6400146484375,157.32000732421875,77.80000305175781,232.18667602539062,1.0
env_steps,15504,25,25,19,15502,0.9386933333333334,0.11256932467222214,0.3821032643318176,0.36112862825393677,0.35143327713012695,3.2073967456817627,1438,10.36004638671875,0.4516320526599884,0.0,600.0,0.6200998425483704,2.1036667823791504,433.0848388671875,8.430999755859375,259.25982666015625,0.029158882796764374,0.6737297773361206,2.1036667823791504,2.1036667823791504,0.0,0.0,8.430999755859375,8.102399826049805,0.32860004901885986,0.1858000010251999,0.1858000010251999,6.372866153717041,4.816105842590332,62.1773796081543,-12.0,-20.20800018310547,-11.609333038330078,-8.0,0.0,623.280029296875,111.36000061035156,19.839618682861328,3.544699192047119,0.8861747980117798,20.725793838500977,59.518856048583984,2.65852427482605,0.04358292743563652,202.0800018310547,310.32000732421875,492.760009765625,383.6400146484375,157.32000732421875,77.80000305175781,232.18667602539062,1.0
env_steps,16000,26,26,20,15998,0.93673,0.15086603164672852,0.3595098555088043,0.4259265065193176,0.39309149980545044,3.691770315170288,1500,9.748055458068848,0.45061925053596497,0.0,600.0,0.621464192867279,2.0957694053649902,433.5269775390625,8.411345481872559,261.26263427734375,0.028608351945877075,0.6674315333366394,2.0957694053649902,2.0957694053649902,0.0,0.0,8.411345481872559,8.094294548034668,0.31705135107040405,0.17974358797073364,0.17974358797073364,6.358781814575195,4.825497150421143,61.64805221557617,-12.0,-20.269229888916016,-11.630768775939941,-8.0,0.0,617.5,112.30769348144531,19.655635833740234,3.5748651027679443,0.8937162756919861,20.54935073852539,58.96691131591797,2.6811485290527344,0.04448593407869339,202.6923065185547,312.1153869628906,493.1538391113281,384.0769348144531,157.0,78.38461303710938,232.6154022216797,1.0
env_steps,16512,27,27,21,16510,0.9347033333333333,0.11866846680641174,0.4040526747703552,0.4393530488014221,0.3535700738430023,3.0494496822357178,1564,11.843825340270996,0.46208152174949646,0.0,600.0,0.6165649890899658,2.1144444942474365,437.7254638671875,8.510185241699219,260.3110046386719,0.029005909338593483,0.6668969392776489,2.1144444942474365,2.1144444942474365,0.0,0.0,8.510185241699219,8.170555114746094,0.3396296799182892,0.18697530031204224,0.18697530031204224,6.41475248336792,4.829346656799316,63.66728210449219,-12.0,-20.22222137451172,-11.601234436035156,-8.0,0.0,637.7036743164062,116.0740737915039,20.29874038696289,3.6947526931762695,0.9236881732940674,21.222427368164062,60.89622116088867,2.771064281463623,0.04446714371442795,202.22222900390625,308.1111145019531,490.6666564941406,383.1851806640625,156.44444274902344,78.22222137451172,232.0247039794922,1.0
env_steps,17008,28,28,22,17006,0.93274,0.14365175366401672,0.32391488552093506,0.3696903586387634,0.37262001633644104,2.8396811485290527,1626,10.937223434448242,0.45731788873672485,0.0,600.0,0.6166508793830872,2.0769641399383545,438.59100341796875,8.497797012329102,267.1413269042969,0.028480052947998047,0.6702609658241272,2.0769641399383545,2.0769641399383545,0.0,0.0,8.497797012329102,8.149999618530273,0.3477976620197296,0.19160713255405426,0.19160713255405426,6.473034858703613,4.937256813049316,62.69198226928711,-12.0,-20.18214225769043,-11.57261848449707,-8.0,0.0,627.6071166992188,115.60713958740234,19.97735595703125,3.6798899173736572,0.9199724793434143,20.897327423095703,59.932071685791016,2.7599170207977295,0.0452943779528141,201.82142639160156,311.8928527832031,492.1785583496094,382.46429443359375,155.89285278320312,78.0,231.452392578125,1.0
env_steps,17504,29,29,23,17502,0.9307766666666667,0.22023341059684753,0.3459920883178711,0.22405216097831726,0.44680437445640564,3.361942768096924,1688,10.511350631713867,0.4552655816078186,0.0,600.0,0.6194274425506592,2.086494207382202,438.3318176269531,8.434022903442383,264.5723571777344,0.028772646561264992,0.6705979704856873,2.086494207382202,2.086494207382202,0.0,0.0,8.434022903442383,8.098217964172363,0.33580464124679565,0.1849999874830246,0.1849999874830246,6.4091949462890625,4.8727922439575195,62.32973861694336,-12.0,-20.241378784179688,-11.577012062072754,-8.0,0.0,624.0344848632812,114.72413635253906,19.86363410949707,3.6517832279205322,0.9129458069801331,20.776578903198242,59.59090805053711,2.7388367652893066,0.045152194797992706,202.41378784179688,314.2758483886719,492.89654541015625,382.5517272949219,156.62069702148438,77.72413635253906,231.5402374267578,1.0
env_steps,18000,30,30,24,18000,0.9288133333333334,0.08561219274997711,0.3161587119102478,0.2697315216064453,0.30227231979370117,2.3430612087249756,1750,10.78939437866211,0.45722004771232605,0.0,600.0,0.6168608069419861,2.090610980987549,435.4747619628906,8.42983341217041,261.7048645019531,0.0283315721899271,0.6624254584312439,2.090610980987549,2.090610980987549,0.0,0.0,8.42983341217041,8.104389190673828,0.3254444897174835,0.179666668176651,0.179666668176651,6.376443862915039,4.847865581512451,62.574947357177734,-12.0,-20.21666717529297,-11.568889617919922,-8.0,0.0,626.4666748046875,115.26667022705078,19.94105339050293,3.6690523624420166,0.9172630906105042,20.858314514160156,59.82316589355469,2.751788854598999,0.045143067836761475,202.1666717529297,315.26666259765625,492.26666259765625,382.5666809082031,156.36666870117188,77.5999984741211,231.37777709960938,1.0
env_steps,18512,30,30,24,18510,0.9267866666666666,0.062424078583717346,0.3619937300682068,0.31877589225769043,0.2818666100502014,2.3722472190856934,1814,10.78939437866211,0.45722004771232605,0.0,600.0,0.6168608069419861,2.090610980987549,435.4747619628906,8.42983341217041,261.7048645019531,0.0283315721899271,0.6624254584312439,2.090610980987549,2.090610980987549,0.0,0.0,8.42983341217041,8.104389190673828,0.3254444897174835,0.179666668176651,0.179666668176651,6.376443862915039,4.847865581512451,62.574947357177734,-12.0,-20.21666717529297,-11.568889617919922,-8.0,0.0,626.4666748046875,115.26667022705078,19.94105339050293,3.6690523624420166,0.9172630906105042,20.858314514160156,59.82316589355469,2.751788854598999,0.045143067836761475,202.1666717529297,315.26666259765625,492.26666259765625,382.5666809082031,156.36666870117188,77.5999984741211,231.37777709960938,1.0
env_steps,19008,31,31,25,19006,0.9248233333333333,0.20678693056106567,0.46315982937812805,0.4080299735069275,0.45013588666915894,2.9976513385772705,1876,9.757075309753418,0.4509548544883728,0.0,600.0,0.6197198629379272,2.085913896560669,430.84002685546875,8.285106658935547,259.3623962402344,0.028033187612891197,0.6635243892669678,2.085913896560669,2.085913896560669,0.0,0.0,8.285106658935547,7.970160961151123,0.3149462640285492,0.1738709658384323,0.1738709658384323,6.258010387420654,4.770407676696777,61.49900817871094,-12.0,-20.196773529052734,-11.545162200927734,-8.0,0.0,615.4515991210938,114.25806427001953,19.590435028076172,3.6369476318359375,0.9092369079589844,20.499670028686523,58.771305084228516,2.727710247039795,0.045900627970695496,201.96774291992188,318.7742004394531,493.67742919921875,382.1612854003906,156.2903289794922,77.12903594970703,230.90322875976562,1.0
env_steps,19504,32,32,26,19502,0.92286,0.1261436641216278,0.2924532890319824,0.3909819722175598,0.3366823196411133,2.765916585922241,1938,9.897916793823242,0.45212188363075256,0.0,600.0,0.6185524463653564,2.052760362625122,431.7379150390625,8.298385620117188,265.4182434082031,0.027989063411951065,0.6704684495925903,2.052760362625122,2.052760362625122,0.0,0.0,8.298385620117188,7.960312843322754,0.33807292580604553,0.1953645944595337,0.1953645944595337,6.333749771118164,4.889587879180908,61.63697814941406,-12.0,-20.209375381469727,-11.52968692779541,-8.0,0.0,617.03125,113.71875,19.640716552734375,3.6197803020477295,0.9049450755119324,20.5456600189209,58.922142028808594,2.7148351669311523,0.04556411877274513,202.09375,317.15625,493.3125,382.25,156.53125,76.5,230.59375,1.0
env_steps,20000,33,33,27,19998,0.9208966666666667,0.09364952892065048,0.24773702025413513,0.24748094379901886,0.3066553473472595,2.4621758460998535,2000,10.468226432800293,0.4548969864845276,0.0,600.0,0.6161448359489441,2.098080635070801,433.2772216796875,8.320505142211914,261.8839111328125,0.028094321489334106,0.6644222140312195,2.098080635070801,2.098080635070801,0.0,0.0,8.320505142211914,7.987575531005859,0.3329292833805084,0.19151516258716583,0.19151516258716583,6.278989791870117,4.825987339019775,62.191959381103516,-12.0,-20.200000762939453,-11.523736953735352,-8.0,0.0,622.242431640625,116.1212158203125,19.80659294128418,3.6962530612945557,0.9240632653236389,20.730655670166016,59.41977310180664,2.7721898555755615,0.04592972621321678,202.0,313.6666564941406,491.757568359375,382.06060791015625,155.60606384277344,76.8787841796875,230.47474670410156,1.0
env_steps,20512,34,34,28,20510,0.91887,0.38763439655303955,0.702795684337616,0.810459554195404,0.6978220343589783,4.195394039154053,2064,11.2413911819458,0.4589470624923706,0.0,600.0,0.6132915616035461,2.150588035583496,434.0449523925781,8.387304306030273,258.5191955566406,0.028245631605386734,0.6581556797027588,2.150588035583496,2.150588035583496,0.0,0.0,8.387304306030273,8.063921928405762,0.32338234782218933,0.1861274540424347,0.1861274540424347,6.24200963973999,4.77685022354126,62.89334487915039,-12.0,-20.12647247314453,-11.525489807128906,-8.0,0.0,628.941162109375,118.70587921142578,20.019821166992188,3.7785253524780273,0.9446313381195068,20.964452743530273,60.0594596862793,2.8338942527770996,0.04624366760253906,201.26470947265625,309.3235168457031,490.0,381.9705810546875,155.73529052734375,76.9117660522461,230.50979614257812,1.0
env_steps,21008,35,35,29,21006,0.9169066666666666,0.26560264825820923,0.48154565691947937,0.46792858839035034,0.5288263559341431,3.742495536804199,2126,10.501813888549805,0.4537457227706909,0.0,600.0,0.615070104598999,2.1493332386016846,428.3597106933594,8.324333190917969,255.61886596679688,0.028012633323669434,0.6537898778915405,2.1493332386016846,2.1493332386016846,0.0,0.0,8.324333190917969,8.0101900100708,0.3141428530216217,0.18080952763557434,0.18080952763557434,6.202666759490967,4.745087146759033,62.20751953125,-12.0,-20.16857147216797,-11.537142753601074,-8.0,0.0,621.8571166992188,118.31428527832031,19.794328689575195,3.7660605907440186,0.9415151476860046,20.7358455657959,59.38298797607422,2.8245456218719482,0.04676403850317001,201.6857147216797,312.71429443359375,491.28570556640625,382.22857666015625,155.77142333984375,77.11428833007812,230.7428436279297,1.0
env_steps,21504,35,35,29,21502,0.9149433333333333,0.18707874417304993,0.5287697315216064,0.7032285332679749,0.47785770893096924,3.496981620788574,2188,10.501813888549805,0.4537457227706909,0.0,600.0,0.615070104598999,2.1493332386016846,428.3597106933594,8.324333190917969,255.61886596679688,0.028012633323669434,0.6537898778915405,2.1493332386016846,2.1493332386016846,0.0,0.0,8.324333190917969,8.0101900100708,0.3141428530216217,0.18080952763557434,0.18080952763557434,6.202666759490967,4.745087146759033,62.20751953125,-12.0,-20.16857147216797,-11.537142753601074,-8.0,0.0,621.8571166992188,118.31428527832031,19.794328689575195,3.7660605907440186,0.9415151476860046,20.7358455657959,59.38298797607422,2.8245456218719482,0.04676403850317001,201.6857147216797,312.71429443359375,491.28570556640625,382.22857666015625,155.77142333984375,77.11428833007812,230.7428436279297,1.0
env_steps,22000,36,36,30,21998,0.91298,0.27137109637260437,0.7854213714599609,0.8576164245605469,0.5541410446166992,5.181761741638184,2250,10.131654739379883,0.45233890414237976,0.0,600.0,0.6159179210662842,2.1686573028564453,428.2037353515625,8.267638206481934,252.8473358154297,0.027622302994132042,0.6486470103263855,2.1686573028564453,2.1686573028564453,0.0,0.0,8.267638206481934,7.962221622467041,0.30541667342185974,0.1757870316505432,0.1757870316505432,6.125185012817383,4.676883220672607,61.94044494628906,-12.0,-20.247222900390625,-11.561573028564453,-8.0,0.0,618.9444580078125,118.77777862548828,19.701614379882812,3.7808139324188232,0.9452034831047058,20.646820068359375,59.10484313964844,2.8356103897094727,0.04716726019978523,202.47222900390625,314.3611145019531,491.6666564941406,382.6944580078125,156.05555725097656,77.47222137451172,231.23147583007812,1.0
env_steps,22512,37,37,31,22510,0.9109533333333333,0.2172652930021286,0.656516969203949,0.8339340090751648,0.4906638264656067,4.555120468139648,2314,10.143875122070312,0.45352163910865784,0.0,600.0,0.6170796155929565,2.209369421005249,427.1012268066406,8.242881774902344,249.07406616210938,0.027532940730452538,0.6406471729278564,2.209369421005249,2.209369421005249,0.0,0.0,8.242881774902344,7.9457197189331055,0.29716214537620544,0.171036034822464,0.171036034822464,6.0830183029174805,4.60806131362915,62.055580139160156,-12.0,-20.34054183959961,-11.57116985321045,-8.0,0.0,619.9729614257812,119.48648834228516,19.73435401916504,3.803372859954834,0.9508432149887085,20.685199737548828,59.203060150146484,2.852529525756836,0.04730571433901787,203.40541076660156,315.8108215332031,492.0810852050781,383.16217041015625,155.64865112304688,77.72972869873047,231.42340087890625,1.0
env_steps,23008,38,38,32,23006,0.90899,0.1919384002685547,0.6703180074691772,0.6975563764572144,0.4533011317253113,4.202892780303955,2376,10.496413230895996,0.4548105299472809,0.0,600.0,0.6158595085144043,2.1821491718292236,428.35552978515625,8.207191467285156,253.5504913330078,0.027652066200971603,0.6472179293632507,2.1821491718292236,2.1821491718292236,0.0,0.0,8.207191467285156,7.917630672454834,0.28956139087677,0.1667105257511139,0.1667105257511139,6.092061519622803,4.650641441345215,62.43982696533203,-12.0,-20.352632522583008,-11.590788841247559,-8.0,0.0,623.9473876953125,119.68421173095703,19.860862731933594,3.809666633605957,0.9524166584014893,20.81328010559082,59.582584381103516,2.8572497367858887,0.04710165411233902,203.5263214111328,314.97369384765625,492.02630615234375,383.3947448730469,155.84210205078125,78.10526275634766,231.81576538085938,1.0
env_steps,23504,39,39,33,23502,0.9070266666666666,0.12186773121356964,0.554650068283081,0.664401113986969,0.3571764826774597,2.55718994140625,2438,10.420939445495605,0.45516157150268555,0.0,600.0,0.615384578704834,2.181196451187134,428.007568359375,8.208845138549805,252.71153259277344,0.027530571445822716,0.6473647356033325,2.181196451187134,2.181196451187134,0.0,0.0,8.208845138549805,7.921623229980469,0.2872222363948822,0.16726496815681458,0.16726496815681458,6.118333339691162,4.65142297744751,62.37648391723633,-12.0,-20.346153259277344,-11.60940170288086,-8.0,0.0,623.5128173828125,118.76923370361328,19.847030639648438,3.7805418968200684,0.9451354742050171,20.79216766357422,59.54108428955078,2.8354063034057617,0.046751342713832855,203.46153259277344,316.94873046875,492.4358825683594,383.71795654296875,156.2820587158203,78.28205108642578,232.18800354003906,1.0
env_steps,24000,40,40,34,24000,0.9050633333333333,0.1564338207244873,0.8006131052970886,0.7936457395553589,0.41974055767059326,3.9883148670196533,2500,10.331323623657227,0.4549325108528137,0.0,600.0,0.6138519048690796,2.167083263397217,428.6385803222656,8.222042083740234,254.53579711914062,0.027721751481294632,0.6524259448051453,2.167083263397217,2.167083263397217,0.0,0.0,8.222042083740234,7.923957824707031,0.2980833351612091,0.17212501168251038,0.17212501168251038,6.15987491607666,4.692101955413818,62.27215576171875,-12.0,-20.329999923706055,-11.610834121704102,-8.0,0.0,622.3499755859375,119.05000305175781,19.810016632080078,3.7894790172576904,0.9473697543144226,20.75738525390625,59.43004608154297,2.842109203338623,0.04691562056541443,203.3000030517578,315.82501220703125,492.125,384.0,156.3000030517578,78.17500305175781,232.21664428710938,1.0
env_steps,24512,40,40,34,24510,0.9030366666666667,0.256284236907959,0.7856601476669312,0.8785396814346313,0.5215620398521423,4.210205078125,2564,10.331323623657227,0.4549325108528137,0.0,600.0,0.6138519048690796,2.167083263397217,428.6385803222656,8.222042083740234,254.53579711914062,0.027721751481294632,0.6524259448051453,2.167083263397217,2.167083263397217,0.0,0.0,8.222042083740234,7.923957824707031,0.2980833351612091,0.17212501168251038,0.17212501168251038,6.15987491607666,4.692101955413818,62.27215576171875,-12.0,-20.329999923706055,-11.610834121704102,-8.0,0.0,622.3499755859375,119.05000305175781,19.810016632080078,3.7894790172576904,0.9473697543144226,20.75738525390625,59.43004608154297,2.842109203338623,0.04691562056541443,203.3000030517578,315.82501220703125,492.125,384.0,156.3000030517578,78.17500305175781,232.21664428710938,1.0
env_steps,25008,41,41,35,25006,0.9010733333333334,0.17755459249019623,0.6163051724433899,0.6380733847618103,0.4381210207939148,3.90496826171875,2626,10.285587310791016,0.45518046617507935,0.0,600.0,0.6130433082580566,2.1405692100524902,426.117431640625,8.10776424407959,255.9458770751953,0.027473222464323044,0.6506215333938599,2.1405692100524902,2.1405692100524902,0.0,0.0,8.10776424407959,7.81695032119751,0.29081299901008606,0.1679268330335617,0.1679268330335617,6.093902111053467,4.659364223480225,62.15835189819336,-12.0,-20.282928466796875,-11.589838027954102,-8.0,0.0,621.243896484375,118.70731353759766,19.77480697631836,3.778571128845215,0.9446427822113037,20.719449996948242,59.32442092895508,2.833928346633911,0.04683266207575798,202.8292694091797,317.19512939453125,492.43902587890625,383.2682800292969,156.1707305908203,77.9756088256836,231.79673767089844,1.0
env_steps,25504,42,42,36,25502,0.89911,0.24635161459445953,0.5994100570678711,0.6088796854019165,0.5259360074996948,3.27040958404541,2688,10.10354232788086,0.4533880650997162,0.0,600.0,0.6117978096008301,2.134960412979126,425.3766784667969,8.092460632324219,255.85000610351562,0.027277112007141113,0.6461707353591919,2.134960412979126,2.134960412979126,0.0,0.0,8.092460632324219,7.808570384979248,0.28388887643814087,0.1639285832643509,0.1639285832643509,6.096309185028076,4.654065132141113,61.83965301513672,-12.0,-20.16428565979004,-11.571825981140137,-8.0,0.0,618.1190185546875,117.85713958740234,19.675338745117188,3.751509189605713,0.9378772974014282,20.613216400146484,59.02602005004883,2.813631772994995,0.04668489471077919,201.64285278320312,318.23809814453125,492.6666564941406,382.80950927734375,155.7857208251953,77.85713958740234,231.43649291992188,1.0
env_steps,26000,43,43,37,25998,0.8971466666666666,0.2785298228263855,0.5134384632110596,0.59795081615448,0.54721999168396,4.500285625457764,2750,9.313437461853027,0.4480232298374176,0.0,600.0,0.614557147026062,2.1522867679595947,423.7525939941406,8.049805641174316,252.9230499267578,0.027116315439343452,0.6443069577217102,2.1522867679595947,2.1522867679595947,0.0,0.0,8.049805641174316,7.772518634796143,0.2772868275642395,0.1601162850856781,0.1601162850856781,6.025852680206299,4.598663806915283,61.007232666015625,-12.0,-20.127906799316406,-11.565892219543457,-8.0,0.0,609.6976928710938,116.6744155883789,19.40727996826172,3.7138619422912598,0.9284654855728149,20.335744857788086,58.221839904785156,2.7853965759277344,0.04702737554907799,201.27906799316406,319.906982421875,493.81396484375,382.7674560546875,155.8372039794922,77.6744155883789,231.31781005859375,1.0
env_steps,26512,44,44,38,26510,0.89512,0.16769617795944214,0.9082038998603821,0.9150394201278687,0.4297945499420166,4.916839122772217,2814,9.05754280090332,0.4467249810695648,0.0,600.0,0.6148464679718018,2.1474621295928955,425.28857421875,8.057878494262695,253.0227508544922,0.027066070586442947,0.6454851627349854,2.1474621295928955,2.1474621295928955,0.0,0.0,8.057878494262695,7.783673286437988,0.2742045223712921,0.15863636136054993,0.15863636136054993,6.052121162414551,4.594173908233643,60.750343322753906,-12.0,-20.12272834777832,-11.570076942443848,-8.0,0.0,607.0908813476562,116.34091186523438,19.324302673339844,3.7032461166381836,0.9258115291595459,20.25011444091797,57.9729118347168,2.7774345874786377,0.04707201570272446,201.22727966308594,321.2954406738281,494.31817626953125,382.81817626953125,155.7045440673828,77.84091186523438,231.40150451660156,1.0
env_steps,27008,45,45,39,27006,0.8931566666666667,0.17628097534179688,0.7911731600761414,0.916738748550415,0.4306708574295044,3.103562831878662,2876,9.199688911437988,0.44694218039512634,0.0,600.0,0.6139767169952393,2.1517038345336914,426.75091552734375,8.081222534179688,254.14581298828125,0.027314692735671997,0.6486778259277344,2.1517038345336914,2.1517038345336914,0.0,0.0,8.081222534179688,7.798702716827393,0.28251850605010986,0.16229629516601562,0.16229629516601562,6.07107400894165,4.619725704193115,60.861907958984375,-12.0,-20.0977783203125,-11.564444541931152,-8.0,0.0,608.1777954101562,116.66666412353516,19.358898162841797,3.7136151790618896,0.9284037947654724,20.287303924560547,58.076698303222656,2.7852115631103516,0.04708263650536537,200.977783203125,319.8222351074219,494.0,382.6444396972656,155.13333129882812,78.04444122314453,231.2888641357422,1.0
env_steps,27504,45,45,39,27502,0.8911933333333333,0.2901417016983032,0.7262161374092102,0.7903288006782532,0.5608798861503601,4.920770168304443,2938,9.199688911437988,0.44694218039512634,0.0,600.0,0.6139767169952393,2.1517038345336914,426.75091552734375,8.081222534179688,254.14581298828125,0.027314692735671997,0.6486778259277344,2.1517038345336914,2.1517038345336914,0.0,0.0,8.081222534179688,7.798702716827393,0.28251850605010986,0.16229629516601562,0.16229629516601562,6.07107400894165,4.619725704193115,60.861907958984375,-12.0,-20.0977783203125,-11.564444541931152,-8.0,0.0,608.1777954101562,116.66666412353516,19.358898162841797,3.7136151790618896,0.9284037947654724,20.287303924560547,58.076698303222656,2.7852115631103516,0.04708263650536537,200.977783203125,319.8222351074219,494.0,382.6444396972656,155.13333129882812,78.04444122314453,231.2888641357422,1.0
env_steps,28000,46,46,40,27998,0.88923,0.1466267853975296,0.8320598602294922,0.7448678612709045,0.3937707543373108,3.8365466594696045,3000,9.255163192749023,0.4468282163143158,0.0,600.0,0.6126383543014526,2.133188486099243,428.9523620605469,8.098876953125,258.348876953125,0.027105972170829773,0.6490837335586548,2.133188486099243,2.133188486099243,0.0,0.0,8.098876953125,7.799020290374756,0.2998550534248352,0.1713043451309204,0.1713043451309204,6.125543117523193,4.685259819030762,60.870018005371094,-12.0,-20.060871124267578,-11.553985595703125,-8.0,0.0,608.1304321289062,117.1956558227539,19.357391357421875,3.7304534912109375,0.9326133728027344,20.290006637573242,58.072174072265625,2.7978403568267822,0.04725411534309387,200.6086883544922,320.13043212890625,494.0,382.2173767089844,155.32608032226562,77.84782409667969,231.07969665527344,1.0
env_steps,28512,47,47,41,28510,0.8872033333333333,0.2930549383163452,0.9804619550704956,1.0319278240203857,0.5673327445983887,5.54655122756958,3064,9.690288543701172,0.4485340118408203,0.0,600.0,0.609905481338501,2.110602855682373,430.31671142578125,8.09145450592041,262.98883056640625,0.027069447562098503,0.6528717875480652,2.110602855682373,2.110602855682373,0.0,0.0,8.09145450592041,7.773155212402344,0.3182978630065918,0.17741134762763977,0.17741134762763977,6.157411098480225,4.744208335876465,61.25518035888672,-12.0,-20.014894485473633,-11.549999237060547,-8.0,0.0,612.1914672851562,117.0851058959961,19.48666000366211,3.7269346714019775,0.9317336678504944,20.418394088745117,58.45997619628906,2.795201063156128,0.04696907848119736,200.14894104003906,318.53192138671875,493.25531005859375,382.0,155.12765502929688,77.93617248535156,230.99998474121094,1.0
env_steps,29008,48,48,42,29006,0.88524,0.2916403114795685,1.0296223163604736,1.0284721851348877,0.5676438808441162,4.2166948318481445,3126,10.569329261779785,0.4527020752429962,0.0,600.0,0.6080144047737122,2.121006965637207,431.3109436035156,8.07656192779541,261.6376953125,0.027210569009184837,0.6536683440208435,2.121006965637207,2.121006965637207,0.0,0.0,8.07656192779541,7.764652729034424,0.3119097054004669,0.17388887703418732,0.17388887703418732,6.114687442779541,4.706096172332764,62.1047477722168,-12.0,-19.972917556762695,-11.5625,-8.0,0.0,620.8333129882812,118.10416412353516,19.76173973083496,3.7593724727630615,0.9398431181907654,20.701581954956055,59.28521728515625,2.8195292949676514,0.046799708157777786,199.7291717529297,316.2916564941406,492.0416564941406,382.25,155.2083282470703,78.14583587646484,231.25,1.0
env_steps,29504,49,49,43,29502,0.8832766666666667,0.34887516498565674,1.0738319158554077,1.3074061870574951,0.6660041809082031,5.6263861656188965,3188,11.005671501159668,0.4553612172603607,0.0,600.0,0.6044687628746033,2.1255781650543213,429.0674743652344,8.085102081298828,259.4988098144531,0.02714679017663002,0.6521446704864502,2.1255781650543213,2.1255781650543213,0.0,0.0,8.085102081298828,7.775850296020508,0.30925169587135315,0.17377549409866333,0.17377549409866333,6.122823238372803,4.692924499511719,62.494789123535156,-12.0,-19.936735153198242,-11.552380561828613,-8.0,0.0,624.755126953125,118.7551040649414,19.886573791503906,3.780092239379883,0.9450230598449707,20.831594467163086,59.65971755981445,2.835069417953491,0.046744443476200104,199.36734008789062,314.6734619140625,491.2040710449219,382.0,154.89796447753906,78.12245178222656,231.047607421875,1.0
env_steps,30000,50,50,44,30000,0.8813133333333334,0.3345475196838379,1.2412681579589844,1.248751163482666,0.642281711101532,4.87776517868042,3250,11.40028190612793,0.45817601680755615,0.0,600.0,0.601996660232544,2.1255998611450195,427.8282165527344,8.03043270111084,257.9792785644531,0.027053136378526688,0.6508525013923645,2.1255998611450195,2.1255998611450195,0.0,0.0,8.03043270111084,7.725100040435791,0.30533331632614136,0.17196664214134216,0.17196664214134216,6.083833694458008,4.651754856109619,62.83628463745117,-12.0,-19.892000198364258,-11.544000625610352,-8.0,0.0,628.260009765625,119.04000091552734,19.998136520385742,3.78916072845459,0.9472901821136475,20.94542694091797,59.994407653808594,2.8418707847595215,0.04660763218998909,198.9199981689453,313.9800109863281,490.6199951171875,381.8399963378906,154.72000122070312,78.04000091552734,230.8800048828125,1.0
env_steps,30512,50,50,44,30510,0.8792866666666667,0.5450646877288818,1.092591643333435,1.4747066497802734,0.8417234420776367,5.832706928253174,3314,11.40028190612793,0.45817601680755615,0.0,600.0,0.601996660232544,2.1255998611450195,427.8282165527344,8.03043270111084,257.9792785644531,0.027053136378526688,0.6508525013923645,2.1255998611450195,2.1255998611450195,0.0,0.0,8.03043270111084,7.725100040435791,0.30533331632614136,0.17196664214134216,0.17196664214134216,6.083833694458008,4.651754856109619,62.83628463745117,-12.0,-19.892000198364258,-11.544000625610352,-8.0,0.0,628.260009765625,119.04000091552734,19.998136520385742,3.78916072845459,0.9472901821136475,20.94542694091797,59.994407653808594,2.8418707847595215,0.04660763218998909,198.9199981689453,313.9800109863281,490.6199951171875,381.8399963378906,154.72000122070312,78.04000091552734,230.8800048828125,1.0
env_steps,31008,51,51,45,31006,0.8773233333333333,0.254141628742218,0.8031156063079834,0.7401063442230225,0.5108028650283813,3.8202788829803467,3376,11.992440223693848,0.46131765842437744,0.0,600.0,0.6003066897392273,2.120424747467041,429.3442077636719,8.02973747253418,259.938232421875,0.02701384201645851,0.6547291874885559,2.120424747467041,2.120424747467041,0.0,0.0,8.02973747253418,7.73026180267334,0.29947713017463684,0.16869279742240906,0.16869279742240906,6.10091495513916,4.666679859161377,63.35584259033203,-12.0,-19.83137321472168,-11.532026290893555,-8.0,0.0,633.62744140625,119.33333587646484,20.168989181518555,3.7984979152679443,0.9496244788169861,21.11861228942871,60.50696563720703,2.8488736152648926,0.046395909041166306,198.313720703125,312.686279296875,489.8823547363281,381.45098876953125,154.43136596679688,78.01960754394531,230.64053344726562,1.0
env_steps,31504,52,52,46,31502,0.87536,0.3822055459022522,1.0141133069992065,1.1767300367355347,0.6841225624084473,5.7994794845581055,3438,12.203177452087402,0.46239808201789856,0.0,600.0,0.598841667175293,2.154294729232788,430.17083740234375,8.038653373718262,257.5677490234375,0.026954110711812973,0.6544856429100037,2.154294729232788,2.154294729232788,0.0,0.0,8.038653373718262,7.744936466217041,0.2937179505825043,0.16544869542121887,0.16544869542121887,6.083493709564209,4.62437105178833,63.515682220458984,-12.0,-19.794231414794922,-11.518269538879395,-8.0,0.0,635.2115478515625,119.69230651855469,20.219411849975586,3.8099241256713867,0.9524810314178467,21.171892166137695,60.65823745727539,2.8574435710906982,0.04638770595192909,197.9423065185547,312.26922607421875,489.48077392578125,380.9615478515625,154.5576934814453,77.78845977783203,230.36538696289062,1.0
env_steps,32000,53,53,47,31998,0.8733966666666666,0.3473772406578064,1.0655462741851807,1.1249529123306274,0.6309702396392822,6.647725582122803,3500,12.348118782043457,0.4632604122161865,0.0,600.0,0.5976517200469971,2.15415096282959,430.83343505859375,8.040596961975098,257.41693115234375,0.026980917900800705,0.6568596363067627,2.15415096282959,2.15415096282959,0.0,0.0,8.040596961975098,7.751855850219727,0.2887421250343323,0.16289305686950684,0.16289305686950684,6.090786457061768,4.617616653442383,63.64246368408203,-12.0,-19.779245376586914,-11.515093803405762,-8.0,0.0,636.26416015625,120.79244995117188,20.252918243408203,3.844942808151245,0.9612357020378113,21.214153289794922,60.758750915527344,2.8837075233459473,0.04665403068065643,197.79244995117188,311.15093994140625,488.7547302246094,380.9622497558594,154.73585510253906,77.60377502441406,230.3018798828125,1.0
env_steps,32512,54,54,48,32510,0.87137,0.2807247042655945,0.8901916742324829,1.1305749416351318,0.5695018172264099,4.611547470092773,3564,12.322681427001953,0.46261855959892273,0.0,600.0,0.5978308320045471,2.1652777194976807,431.5975341796875,8.12623405456543,256.1532897949219,0.027235379442572594,0.6536770462989807,2.1652777194976807,2.1652777194976807,0.0,0.0,8.12623405456543,7.823703765869141,0.30253085494041443,0.16811725497245789,0.16811725497245789,6.138086318969727,4.624227523803711,63.608489990234375,-12.0,-19.761112213134766,-11.524690628051758,-8.0,0.0,635.870361328125,120.94444274902344,20.24038314819336,3.849780797958374,0.9624451994895935,21.202829360961914,60.72114944458008,2.887336254119873,0.04671277478337288,197.61111450195312,311.6666564941406,488.7962951660156,381.46295166015625,154.90740966796875,77.55555725097656,230.49383544921875,1.0
env_steps,33008,55,55,49,33006,0.8694066666666667,0.21013864874839783,1.0464529991149902,0.9813721179962158,0.498026579618454,4.855983257293701,3626,12.566352844238281,0.46496182680130005,0.0,600.0,0.596309244632721,2.165151357650757,433.2044982910156,8.081969261169434,256.3518371582031,0.027267642319202423,0.6514928936958313,2.165151357650757,2.165151357650757,0.0,0.0,8.081969261169434,7.784939765930176,0.2970302999019623,0.16506057977676392,0.16506057977676392,6.094272613525391,4.5950093269348145,63.8196907043457,-12.0,-19.740001678466797,-11.513333320617676,-8.0,0.0,638.0908813476562,120.90908813476562,20.311065673828125,3.8486554622650146,0.9621638655662537,21.273229598999023,60.93319320678711,2.8864920139312744,0.046550098806619644,197.39999389648438,309.9272766113281,488.0909118652344,381.2909240722656,154.92727661132812,77.29090881347656,230.2666778564453,1.0
env_steps,33504,55,55,49,33502,0.8674433333333333,0.22978676855564117,1.0341646671295166,0.9269990921020508,0.5204777717590332,4.669325828552246,3688,12.566352844238281,0.46496182680130005,0.0,600.0,0.596309244632721,2.165151357650757,433.2044982910156,8.081969261169434,256.3518371582031,0.027267642319202423,0.6514928936958313,2.165151357650757,2.165151357650757,0.0,0.0,8.081969261169434,7.784939765930176,0.2970302999019623,0.16506057977676392,0.16506057977676392,6.094272613525391,4.5950093269348145,63.8196907043457,-12.0,-19.740001678466797,-11.513333320617676,-8.0,0.0,638.0908813476562,120.90908813476562,20.311065673828125,3.8486554622650146,0.9621638655662537,21.273229598999023,60.93319320678711,2.8864920139312744,0.046550098806619644,197.39999389648438,309.9272766113281,488.0909118652344,381.2909240722656,154.92727661132812,77.29090881347656,230.2666778564453,1.0
env_steps,34000,56,56,50,33998,0.86548,0.2315141260623932,0.8793644309043884,0.9666013717651367,0.5209108591079712,5.0330939292907715,3750,12.292861938476562,0.46317678689956665,0.0,600.0,0.5980508923530579,2.18279767036438,433.24114990234375,8.091726303100586,254.40231323242188,0.027349233627319336,0.6494281888008118,2.18279767036438,2.18279767036438,0.0,0.0,8.091726303100586,7.799999713897705,0.29172617197036743,0.16211308538913727,0.16211308538913727,6.084404468536377,4.5654778480529785,63.594051361083984,-12.0,-19.774999618530273,-11.526190757751465,-8.0,0.0,635.9107055664062,120.17857360839844,20.241666793823242,3.8254027366638184,0.9563506841659546,21.198015213012695,60.72500228881836,2.8690521717071533,0.04638516902923584,197.75,311.0178527832031,488.71429443359375,381.4821472167969,155.05357360839844,77.51786041259766,230.5238037109375,1.0
env_steps,34512,57,57,51,34510,0.8634533333333334,0.26251888275146484,0.9316931962966919,0.9286327362060547,0.5336994528770447,5.683541297912598,3814,13.130268096923828,0.4677105247974396,0.0,600.0,0.5949149131774902,2.1814911365509033,434.7698974609375,8.115262985229492,254.98892211914062,0.027421463280916214,0.6483767032623291,2.1814911365509033,2.1814911365509033,0.0,0.0,8.115262985229492,7.827134609222412,0.28812864422798157,0.16002923250198364,0.16002923250198364,6.097163677215576,4.570425510406494,64.39576721191406,-12.0,-19.75263214111328,-11.512866020202637,-8.0,0.0,643.9473876953125,121.6140365600586,20.497482299804688,3.8710947036743164,0.9677736759185791,21.465251922607422,61.4924430847168,2.9033210277557373,0.04634550213813782,197.5263214111328,308.0701904296875,487.4561462402344,381.1754455566406,154.82455444335938,77.3859634399414,230.25729370117188,1.0
env_steps,35008,58,58,52,35006,0.86149,0.23251494765281677,1.033980369567871,1.0352976322174072,0.5184957981109619,5.158101558685303,3876,12.89844036102295,0.4668775796890259,0.0,600.0,0.5944402813911438,2.1634769439697266,434.3746032714844,8.112671852111816,257.2493896484375,0.02720801718533039,0.6519526839256287,2.1634769439697266,2.1634769439697266,0.0,0.0,8.112671852111816,7.822241306304932,0.29043102264404297,0.16137930750846863,0.16137930750846863,6.126637935638428,4.618459224700928,64.13751983642578,-12.0,-19.725862503051758,-11.51321792602539,-8.0,0.0,641.362060546875,121.13793182373047,20.41518783569336,3.8559398651123047,0.9639849662780762,21.37917137145996,61.245567321777344,2.8919548988342285,0.04632938280701637,197.2586212158203,309.5,487.7241516113281,381.0862121582031,154.70689392089844,77.5,230.2643585205078,1.0
env_steps,35504,59,59,53,35502,0.8595266666666667,0.2795250117778778,1.0023025274276733,1.1942389011383057,0.5638790130615234,4.945296764373779,3938,13.078636169433594,0.4681423604488373,0.0,600.0,0.5941792130470276,2.1694912910461426,434.0104675292969,8.110225677490234,255.6953582763672,0.027267510071396828,0.6517246961593628,2.1694912910461426,2.1694912910461426,0.0,0.0,8.110225677490234,7.823644161224365,0.2865819036960602,0.15935027599334717,0.15935027599334717,6.130198001861572,4.597195148468018,64.32948303222656,-12.0,-19.737287521362305,-11.513559341430664,-8.0,0.0,643.3728637695312,121.13558959960938,20.47919464111328,3.855865478515625,0.9639663696289062,21.443159103393555,61.43758773803711,2.8918988704681396,0.04619293659925461,197.3728790283203,308.6271057128906,487.6949157714844,380.9660949707031,154.32203674316406,77.76271057128906,230.27117919921875,1.0
env_steps,36000,60,60,54,36000,0.8575633333333333,0.2645499110221863,1.1408934593200684,1.0997880697250366,0.5411572456359863,4.698633193969727,4000,13.204996109008789,0.46933332085609436,0.0,600.0,0.5937326550483704,2.1684720516204834,434.05279541015625,8.126888275146484,255.1585235595703,0.02720823884010315,0.6500822305679321,2.1684720516204834,2.1684720516204834,0.0,0.0,8.126888275146484,7.844388961791992,0.2824999690055847,0.1570555567741394,0.1570555567741394,6.118750095367432,4.595969200134277,64.48082733154297,-12.0,-19.755001068115234,-11.520833015441895,-8.0,0.0,644.7666625976562,121.9000015258789,20.5235595703125,3.880197286605835,0.9700493216514587,21.493608474731445,61.570682525634766,2.9101479053497314,0.04632820188999176,197.5500030517578,308.1666564941406,487.3833312988281,381.0666809082031,154.28334045410156,77.94999694824219,230.4166717529297,1.0
env_steps,36512,60,60,54,36510,0.8555366666666667,0.4052305221557617,1.5770175457000732,1.6007418632507324,0.7421399354934692,8.641155242919922,4064,13.204996109008789,0.46933332085609436,0.0,600.0,0.5937326550483704,2.1684720516204834,434.05279541015625,8.126888275146484,255.1585235595703,0.02720823884010315,0.6500822305679321,2.1684720516204834,2.1684720516204834,0.0,0.0,8.126888275146484,7.844388961791992,0.2824999690055847,0.1570555567741394,0.1570555567741394,6.118750095367432,4.595969200134277,64.48082733154297,-12.0,-19.755001068115234,-11.520833015441895,-8.0,0.0,644.7666625976562,121.9000015258789,20.5235595703125,3.880197286605835,0.9700493216514587,21.493608474731445,61.570682525634766,2.9101479053497314,0.04632820188999176,197.5500030517578,308.1666564941406,487.3833312988281,381.0666809082031,154.28334045410156,77.94999694824219,230.4166717529297,1.0
env_steps,37008,61,61,55,37006,0.8535733333333333,0.24022740125656128,1.3220155239105225,1.202875018119812,0.537562370300293,5.886579513549805,4126,12.893447875976562,0.46755409240722656,0.0,600.0,0.5942009091377258,2.1912293434143066,430.134033203125,8.079780578613281,251.9254150390625,0.026984622702002525,0.6434280276298523,2.1912293434143066,2.1912293434143066,0.0,0.0,8.079780578613281,7.801912307739258,0.2778688371181488,0.15448087453842163,0.15448087453842163,6.059371471405029,4.544790267944336,64.18771362304688,-12.0,-19.760656356811523,-11.53360652923584,-8.0,0.0,641.8360595703125,121.3442611694336,20.430274963378906,3.8625078201293945,0.9656269550323486,21.395902633666992,61.29083251953125,2.896880626678467,0.046307772397994995,197.60655212402344,310.2131042480469,488.0655822753906,381.557373046875,154.36065673828125,78.04917907714844,230.67213439941406,1.0
env_steps,37504,62,62,56,37502,0.85161,0.44139158725738525,1.4366379976272583,1.7671244144439697,0.7437276244163513,7.997611999511719,4188,12.76305866241455,0.4671548306941986,0.0,600.0,0.5941441655158997,2.186424493789673,432.59844970703125,8.122740745544434,253.14808654785156,0.026859654113650322,0.6389519572257996,2.186424493789673,2.186424493789673,0.0,0.0,8.122740745544434,7.840537071228027,0.2822043001651764,0.157150536775589,0.157150536775589,6.097957134246826,4.572880268096924,64.05768585205078,-12.0,-19.766128540039062,-11.528494834899902,-8.0,0.0,640.5322875976562,121.11289978027344,20.388774871826172,3.8551433086395264,0.9637858271598816,21.352558135986328,61.16632843017578,2.891357421875,0.04629494249820709,197.66128540039062,311.1612854003906,488.3709716796875,381.3870849609375,154.35484313964844,77.98387145996094,230.56988525390625,1.0
env_steps,38000,63,63,57,37998,0.8496466666666667,0.36458492279052734,1.1729369163513184,1.2233651876449585,0.6807141304016113,5.277654647827148,4250,13.335603713989258,0.4702920615673065,0.0,600.0,0.59287428855896,2.2034125328063965,433.15948486328125,8.152565956115723,251.68077087402344,0.026803141459822655,0.6362414360046387,2.2034125328063965,2.2034125328063965,0.0,0.0,8.152565956115723,7.872883319854736,0.2796825170516968,0.15608465671539307,0.15608465671539307,6.1223015785217285,4.556612491607666,64.62713623046875,-12.0,-19.76666831970215,-11.524867057800293,-8.0,0.0,646.3809814453125,121.57142639160156,20.57494354248047,3.8697385787963867,0.9674346446990967,21.542377471923828,61.72483444213867,2.90230393409729,0.04612889513373375,197.6666717529297,311.26983642578125,487.984130859375,381.4444580078125,154.3015899658203,77.87301635742188,230.49734497070312,1.0
env_steps,38512,64,64,58,38510,0.84762,0.298683226108551,1.510025978088379,1.5961390733718872,0.6119738817214966,5.6442060470581055,4314,13.120938301086426,0.4689125120639801,0.0,600.0,0.5927360653877258,2.1998958587646484,432.852783203125,8.113985061645508,251.56509399414062,0.026722529903054237,0.6357980966567993,2.1998958587646484,2.1998958587646484,0.0,0.0,8.113985061645508,7.838672161102295,0.27531248331069946,0.1536458283662796,0.1536458283662796,6.09052038192749,4.536042213439941,64.33839416503906,-12.0,-19.704689025878906,-11.512760162353516,-8.0,0.0,643.375,121.5,20.479263305664062,3.867465019226074,0.9668662548065186,21.446128845214844,61.43778991699219,2.9005987644195557,0.04635387659072876,197.046875,312.03125,488.296875,381.125,154.140625,77.75,230.2552032470703,1.0
env_steps,39008,65,65,59,39006,0.8456566666666667,0.39654314517974854,1.442605972290039,1.8212703466415405,0.7033092975616455,5.291064262390137,4376,13.340882301330566,0.47076615691185,0.0,600.0,0.5917061567306519,2.2066667079925537,431.69525146484375,8.076436996459961,249.91268920898438,0.026632247492671013,0.6327868700027466,2.2066667079925537,2.2066667079925537,0.0,0.0,8.076436996459961,7.805359363555908,0.27107691764831543,0.15128204226493835,0.15128204226493835,6.041204929351807,4.50070333480835,64.55986022949219,-12.0,-19.709232330322266,-11.509742736816406,-8.0,0.0,645.5845947265625,121.93846130371094,20.549598693847656,3.8814215660095215,0.9703553915023804,21.51995277404785,61.64879608154297,2.9110662937164307,0.0463404655456543,197.09230041503906,311.78460693359375,487.96923828125,381.0923156738281,154.13845825195312,77.67692565917969,230.19485473632812,1.0
env_steps,39504,65,65,59,39502,0.8436933333333334,0.43154436349868774,1.5959138870239258,1.5297369956970215,0.7375214695930481,4.88479471206665,4438,13.340882301330566,0.47076615691185,0.0,600.0,0.5917061567306519,2.2066667079925537,431.69525146484375,8.076436996459961,249.91268920898438,0.026632247492671013,0.6327868700027466,2.2066667079925537,2.2066667079925537,0.0,0.0,8.076436996459961,7.805359363555908,0.27107691764831543,0.15128204226493835,0.15128204226493835,6.041204929351807,4.50070333480835,64.55986022949219,-12.0,-19.709232330322266,-11.509742736816406,-8.0,0.0,645.5845947265625,121.93846130371094,20.549598693847656,3.8814215660095215,0.9703553915023804,21.51995277404785,61.64879608154297,2.9110662937164307,0.0463404655456543,197.09230041503906,311.78460693359375,487.96923828125,381.0923156738281,154.13845825195312,77.67692565917969,230.19485473632812,1.0
env_steps,40000,66,66,60,39998,0.84173,0.2687222361564636,1.2958465814590454,1.3573533296585083,0.5597248673439026,5.35563850402832,4500,13.229375839233398,0.469743937253952,0.0,600.0,0.5900519490242004,2.21755051612854,430.1885070800781,8.031112670898438,248.2042236328125,0.02648211270570755,0.627667248249054,2.21755051612854,2.21755051612854,0.0,0.0,8.031112670898438,7.76414155960083,0.2669696807861328,0.14898990094661713,0.14898990094661713,5.99540376663208,4.4630327224731445,64.39554595947266,-12.0,-19.66515350341797,-11.501009941101074,-8.0,0.0,643.8636474609375,121.93939208984375,20.49481773376465,3.88145112991333,0.9703627824783325,21.465179443359375,61.48445129394531,2.911088705062866,0.04645988345146179,196.65151977539062,312.31817626953125,488.0303039550781,380.8636474609375,154.01515197753906,77.59091186523438,230.02020263671875,1.0
env_steps,40512,67,67,61,40510,0.8397033333333334,0.3116264343261719,1.3365747928619385,1.422689437866211,0.5921111702919006,4.341592311859131,4564,13.574310302734375,0.47188058495521545,0.0,600.0,0.5879256129264832,2.237985134124756,430.1772766113281,8.067463874816895,246.3731689453125,0.026601573452353477,0.6260568499565125,2.237985134124756,2.237985134124756,0.0,0.0,8.067463874816895,7.804478168487549,0.2629850506782532,0.14676617085933685,0.14676617085933685,5.977114200592041,4.4441752433776855,64.74993896484375,-12.0,-19.668659210205078,-11.506965637207031,-8.0,0.0,647.3880615234375,122.68656921386719,20.60700225830078,3.9052343368530273,0.9763085842132568,21.583311080932617,61.82101058959961,2.9289262294769287,0.04646178334951401,196.6865692138672,309.4328308105469,486.80596923828125,380.9403076171875,153.8656768798828,77.80596923828125,230.13929748535156,1.0
env_steps,41008,68,68,62,41006,0.83774,0.2748580276966095,1.443708896636963,1.4610648155212402,0.5762376189231873,5.573165416717529,4626,14.196235656738281,0.4753882586956024,0.0,600.0,0.5861554145812988,2.2524755001068115,430.4560852050781,8.074780464172363,244.83056640625,0.026715686544775963,0.6244620084762573,2.2524755001068115,2.2524755001068115,0.0,0.0,8.074780464172363,7.815662384033203,0.25911763310432434,0.14460784196853638,0.14460784196853638,5.9529900550842285,4.418664455413818,65.35089874267578,-12.0,-19.64853286743164,-11.50612735748291,-8.0,0.0,653.4705810546875,123.52941131591797,20.800615310668945,3.932062864303589,0.9830157160758972,21.78363037109375,62.40184783935547,2.949047565460205,0.04637686163187027,196.48529052734375,307.9117736816406,485.941162109375,380.9264831542969,153.76470947265625,77.8382339477539,230.12254333496094,1.0
env_steps,41504,69,69,63,41502,0.8357766666666666,0.4209253191947937,1.666785478591919,1.8026108741760254,0.7498867511749268,6.644265651702881,4688,14.417790412902832,0.47655653953552246,0.0,600.0,0.5849429368972778,2.263864755630493,430.95050048828125,8.082319259643555,243.72666931152344,0.026675594970583916,0.6224014163017273,2.263864755630493,2.263864755630493,0.0,0.0,8.082319259643555,7.826956272125244,0.25536230206489563,0.14251206815242767,0.14251206815242767,5.950265407562256,4.40119743347168,65.56803894042969,-12.0,-19.643482208251953,-11.506763458251953,-8.0,0.0,655.6231689453125,124.01449584960938,20.8691349029541,3.9475035667419434,0.9868758916854858,21.85601043701172,62.60740661621094,2.960627794265747,0.04638092219829559,196.43478393554688,307.92755126953125,485.7970886230469,380.8260803222656,154.01449584960938,77.78260803222656,230.13525390625,1.0
env_steps,42000,70,70,64,42000,0.8338133333333333,0.3453574776649475,1.679895281791687,1.4706311225891113,0.6539589166641235,5.286334991455078,4750,14.178128242492676,0.4751614034175873,0.0,600.0,0.5855953693389893,2.27226185798645,435.1719055175781,8.103119850158691,244.2751922607422,0.02662266604602337,0.619361937046051,2.27226185798645,2.27226185798645,0.0,0.0,8.103119850158691,7.850809097290039,0.25230950117111206,0.14102379977703094,0.14102379977703094,5.955523490905762,4.394905090332031,65.35028076171875,-12.0,-19.655717849731445,-11.51642894744873,-8.0,0.0,653.3285522460938,124.07142639160156,20.79609489440918,3.9493160247802734,0.9873290061950684,21.783422470092773,62.38828659057617,2.961987018585205,0.04658577963709831,196.55714416503906,308.3143005371094,486.0,380.9571533203125,154.22857666015625,77.9000015258789,230.3285675048828,1.0
env_steps,42512,70,70,64,42510,0.8317866666666667,0.29848605394363403,1.5649210214614868,1.6402509212493896,0.609413743019104,5.004668235778809,4814,14.178128242492676,0.4751614034175873,0.0,600.0,0.5855953693389893,2.27226185798645,435.1719055175781,8.103119850158691,244.2751922607422,0.02662266604602337,0.619361937046051,2.27226185798645,2.27226185798645,0.0,0.0,8.103119850158691,7.850809097290039,0.25230950117111206,0.14102379977703094,0.14102379977703094,5.955523490905762,4.394905090332031,65.35028076171875,-12.0,-19.655717849731445,-11.51642894744873,-8.0,0.0,653.3285522460938,124.07142639160156,20.79609489440918,3.9493160247802734,0.9873290061950684,21.783422470092773,62.38828659057617,2.961987018585205,0.04658577963709831,196.55714416503906,308.3143005371094,486.0,380.9571533203125,154.22857666015625,77.9000015258789,230.3285675048828,1.0
env_steps,43008,71,71,65,43006,0.8298233333333334,0.3535068929195404,1.2993667125701904,1.5096135139465332,0.6526192426681519,6.653959274291992,4876,14.325236320495605,0.47586339712142944,0.0,600.0,0.5847296118736267,2.2702112197875977,435.319580078125,8.130634307861328,244.1326141357422,0.0267762690782547,0.6210736036300659,2.2702112197875977,2.2702112197875977,0.0,0.0,8.130634307861328,7.862534999847412,0.2680985629558563,0.14983566105365753,0.14983566105365753,5.99727725982666,4.407929420471191,65.46749877929688,-12.0,-19.63239860534668,-11.509859085083008,-8.0,0.0,654.4366455078125,124.5492935180664,20.83136558532715,3.964526891708374,0.9911317229270935,21.82249641418457,62.49409866333008,2.973395347595215,0.046650756150484085,196.32394409179688,307.9295654296875,485.7464904785156,380.9013977050781,154.25352478027344,77.71830749511719,230.1971893310547,1.0
env_steps,43504,72,72,66,43502,0.82786,0.40167760848999023,1.3596839904785156,1.3299176692962646,0.6875852942466736,4.9873948097229,4938,14.577739715576172,0.4772944450378418,0.0,600.0,0.5838417410850525,2.2791666984558105,437.7335205078125,8.142476081848145,243.69503784179688,0.026828493922948837,0.6231980323791504,2.2791666984558105,2.2791666984558105,0.0,0.0,8.142476081848145,7.878102779388428,0.2643750011920929,0.14775462448596954,0.14775462448596954,6.011319637298584,4.39153528213501,65.67727661132812,-12.0,-19.59722137451172,-11.502314567565918,-8.0,0.0,656.638916015625,124.52777862548828,20.901466369628906,3.9638421535491943,0.9909605383872986,21.892425537109375,62.70439147949219,2.97288179397583,0.046508997678756714,195.97222900390625,307.8611145019531,485.3055419921875,380.84722900390625,154.18055725097656,77.55555725097656,230.0463104248047,1.0
env_steps,44000,73,73,67,43998,0.8258966666666667,0.4112040400505066,1.6303040981292725,1.8356850147247314,0.7174946069717407,9.355511665344238,5000,14.961338996887207,0.4791876971721649,0.0,600.0,0.5827046036720276,2.2770321369171143,438.18975830078125,8.161049842834473,244.0437469482422,0.026846934109926224,0.6238425970077515,2.2770321369171143,2.2770321369171143,0.0,0.0,8.161049842834473,7.88634729385376,0.2747032046318054,0.151963472366333,0.151963472366333,6.035982131958008,4.402770042419434,66.009521484375,-12.0,-19.554794311523438,-11.493377685546875,-8.0,0.0,660.0958862304688,124.61643981933594,21.011505126953125,3.9666643142700195,0.9916660785675049,22.003170013427734,63.034515380859375,2.9749984741210938,0.046348266303539276,195.54794311523438,307.8082275390625,485.09588623046875,380.6986389160156,154.02740478515625,77.4383544921875,229.86758422851562,1.0
env_steps,44512,74,74,68,44510,0.82387,0.41027915477752686,1.7025765180587769,1.9196735620498657,0.7004868984222412,6.143056392669678,5064,14.712506294250488,0.4782770574092865,0.0,600.0,0.5837793350219727,2.2701804637908936,439.33056640625,8.164684295654297,245.39315795898438,0.026674890890717506,0.6216269135475159,2.2701804637908936,2.2701804637908936,0.0,0.0,8.164684295654297,7.888221740722656,0.27646398544311523,0.1526576578617096,0.1526576578617096,6.0548200607299805,4.418694972991943,65.82917785644531,-12.0,-19.6162166595459,-11.500449180603027,-8.0,0.0,658.2432250976562,124.47297668457031,20.952533721923828,3.962097644805908,0.990524411201477,21.943058013916016,62.857601165771484,2.9715733528137207,0.04642027989029884,196.1621551513672,309.70269775390625,485.70269775390625,380.8783874511719,154.09458923339844,77.52702331542969,230.009033203125,1.0
env_steps,45008,75,75,69,45006,0.8219066666666667,0.2791576385498047,1.6205682754516602,1.7575323581695557,0.5327359437942505,5.697879791259766,5126,14.895818710327148,0.4793426990509033,0.0,600.0,0.5823183655738831,2.2672667503356934,437.6805114746094,8.179399490356445,244.41224670410156,0.026604436337947845,0.6192265152931213,2.2672667503356934,2.2672667503356934,0.0,0.0,8.179399490356445,7.9023566246032715,0.2770444452762604,0.15253332257270813,0.15253332257270813,6.049422264099121,4.427006721496582,66.01715850830078,-12.0,-19.617332458496094,-11.503998756408691,-8.0,0.0,660.106689453125,124.8933334350586,21.0118465423584,3.975478172302246,0.9938695430755615,22.005718231201172,63.035545349121094,2.9816086292266846,0.04642261192202568,196.17333984375,309.14666748046875,485.38665771484375,380.9200134277344,154.1999969482422,77.55999755859375,230.0800323486328,1.0
env_steps,45504,75,75,69,45502,0.8199433333333334,0.21589168906211853,1.4911723136901855,1.5443823337554932,0.49153241515159607,3.936730146408081,5188,14.895818710327148,0.4793426990509033,0.0,600.0,0.5823183655738831,2.2672667503356934,437.6805114746094,8.179399490356445,244.41224670410156,0.026604436337947845,0.6192265152931213,2.2672667503356934,2.2672667503356934,0.0,0.0,8.179399490356445,7.9023566246032715,0.2770444452762604,0.15253332257270813,0.15253332257270813,6.049422264099121,4.427006721496582,66.01715850830078,-12.0,-19.617332458496094,-11.503998756408691,-8.0,0.0,660.106689453125,124.8933334350586,21.0118465423584,3.975478172302246,0.9938695430755615,22.005718231201172,63.035545349121094,2.9816086292266846,0.04642261192202568,196.17333984375,309.14666748046875,485.38665771484375,380.9200134277344,154.1999969482422,77.55999755859375,230.0800323486328,1.0
env_steps,46000,76,76,70,45998,0.81798,0.4269804358482361,1.8369368314743042,2.0268616676330566,0.7348320484161377,6.5843825340271,5250,15.343883514404297,0.4818500280380249,0.0,600.0,0.5807426571846008,2.255526542663574,436.3545837402344,8.13199520111084,244.7041015625,0.026590287685394287,0.6187116503715515,2.255526542663574,2.255526542663574,0.0,0.0,8.13199520111084,7.858597755432129,0.27339911460876465,0.15052631497383118,0.15052631497383118,6.024320125579834,4.416995048522949,66.42196655273438,-12.0,-19.58289337158203,-11.495174407958984,-8.0,0.0,664.2894897460938,125.11842346191406,21.144990921020508,3.982642650604248,0.995660662651062,22.14065170288086,63.434974670410156,2.9869823455810547,0.04627266898751259,195.82894897460938,309.1842041015625,485.1052551269531,380.6710510253906,154.01315307617188,77.5131607055664,229.9035186767578,1.0
env_steps,46512,77,77,71,46510,0.8159533333333333,0.3486720323562622,1.6714086532592773,1.839137077331543,0.6421785950660706,6.293068885803223,5314,15.343905448913574,0.4813610315322876,0.0,600.0,0.580547571182251,2.24735951423645,437.40289306640625,8.1296968460083,245.966064453125,0.026522809639573097,0.6186429262161255,2.24735951423645,2.24735951423645,0.0,0.0,8.1296968460083,7.8597846031188965,0.2699134051799774,0.1486363559961319,0.1486363559961319,6.0384416580200195,4.426233291625977,66.41815948486328,-12.0,-19.576622009277344,-11.497617721557617,-8.0,0.0,664.259765625,125.07791900634766,21.144044876098633,3.981353759765625,0.9953384399414062,22.13938331604004,63.43213653564453,2.9860153198242188,0.04624371603131294,195.7662353515625,309.58441162109375,485.1947937011719,380.71429443359375,154.05194091796875,77.54545593261719,229.952392578125,1.0
env_steps,47008,78,78,72,47006,0.81399,0.2846388816833496,1.8704530000686646,2.002214193344116,0.5635786056518555,5.781184196472168,5376,15.69752025604248,0.4833679795265198,0.0,600.0,0.5799522399902344,2.2392094135284424,437.77093505859375,8.100533485412598,247.20504760742188,0.02656932733952999,0.6217285990715027,2.2392094135284424,2.2392094135284424,0.0,0.0,8.100533485412598,7.834082126617432,0.26645299792289734,0.14673076570034027,0.14673076570034027,6.02346134185791,4.42200231552124,66.76612091064453,-12.0,-19.566665649414062,-11.501921653747559,-8.0,0.0,667.7179565429688,125.82051086425781,21.254121780395508,4.004991054534912,1.001247763633728,22.25537109375,63.76237106323242,3.0037434101104736,0.04624950885772705,195.6666717529297,309.30767822265625,484.71795654296875,380.78204345703125,154.10256958007812,77.61538696289062,230.03846740722656,1.0
env_steps,47504,79,79,73,47502,0.8120266666666667,0.27136585116386414,1.5979931354522705,1.6908248662948608,0.5377829074859619,5.945935249328613,5438,15.898163795471191,0.48437345027923584,0.0,600.0,0.5787400603294373,2.2281224727630615,438.0547790527344,8.12862777709961,248.7375946044922,0.02650430239737034,0.6233537197113037,2.2281224727630615,2.2281224727630615,0.0,0.0,8.12862777709961,7.840507507324219,0.28812235593795776,0.15616032481193542,0.15616032481193542,6.073143482208252,4.471785545349121,66.9405746459961,-12.0,-19.545568466186523,-11.496833801269531,-8.0,0.0,669.5316162109375,125.87342071533203,21.311853408813477,4.0066752433776855,1.0016688108444214,22.31352424621582,63.93556594848633,3.0050063133239746,0.046151790767908096,195.45570373535156,309.31646728515625,484.6329040527344,380.51898193359375,154.25315856933594,77.51898956298828,229.93670654296875,1.0
env_steps,48000,80,80,74,48000,0.8100633333333334,0.4571049213409424,1.5283539295196533,1.7702429294586182,0.7639331817626953,8.361810684204102,5500,15.532171249389648,0.48308879137039185,0.0,600.0,0.5802828669548035,2.2133750915527344,438.6742248535156,8.097063064575195,251.58633422851562,0.026348352432250977,0.6256524920463562,2.2133750915527344,2.2133750915527344,0.0,0.0,8.097063064575195,7.812417507171631,0.28464585542678833,0.15433332324028015,0.15433332324028015,6.066500186920166,4.483700752258301,66.63737487792969,-12.0,-19.592500686645508,-11.51270866394043,-8.0,0.0,666.4500122070312,125.5,21.213764190673828,3.994788646697998,0.9986971616744995,22.212459564208984,63.64128494262695,2.996091842651367,0.04624604061245918,195.9250030517578,310.7250061035156,485.1625061035156,380.7875061035156,154.39999389648438,77.7874984741211,230.254150390625,1.0
env_steps,48512,80,80,74,48510,0.8080366666666667,0.2199692726135254,1.740563154220581,1.676289439201355,0.5195449590682983,4.933439254760742,5564,15.532171249389648,0.48308879137039185,0.0,600.0,0.5802828669548035,2.2133750915527344,438.6742248535156,8.097063064575195,251.58633422851562,0.026348352432250977,0.6256524920463562,2.2133750915527344,2.2133750915527344,0.0,0.0,8.097063064575195,7.812417507171631,0.28464585542678833,0.15433332324028015,0.15433332324028015,6.066500186920166,4.483700752258301,66.63737487792969,-12.0,-19.592500686645508,-11.51270866394043,-8.0,0.0,666.4500122070312,125.5,21.213764190673828,3.994788646697998,0.9986971616744995,22.212459564208984,63.64128494262695,2.996091842651367,0.04624604061245918,195.9250030517578,310.7250061035156,485.1625061035156,380.7875061035156,154.39999389648438,77.7874984741211,230.254150390625,1.0
env_steps,49008,81,81,75,49006,0.8060733333333333,0.333703875541687,1.5859999656677246,1.7929638624191284,0.6402168869972229,5.595654487609863,5626,15.514297485351562,0.48269757628440857,0.0,600.0,0.5798771977424622,2.2075719833374023,438.9389343261719,8.083168983459473,251.9962615966797,0.02639194205403328,0.6260820627212524,2.2075719833374023,2.2075719833374023,0.0,0.0,8.083168983459473,7.801811218261719,0.2813580334186554,0.15265432000160217,0.15265432000160217,6.058765411376953,4.483236312866211,66.6231460571289,-12.0,-19.596296310424805,-11.512551307678223,-8.0,0.0,666.283935546875,125.56790161132812,21.208478927612305,3.996950149536133,0.9992375373840332,22.207714080810547,63.62542724609375,2.9977128505706787,0.04626470431685448,195.9629669189453,310.76544189453125,485.0987548828125,380.6666564941406,154.16049194335938,77.96295928955078,230.25100708007812,1.0
env_steps,49504,82,82,76,49502,0.80411,0.366549551486969,1.871612787246704,1.6766149997711182,0.6806504726409912,8.327457427978516,5688,15.127077102661133,0.48037439584732056,0.0,600.0,0.5815916657447815,2.204207420349121,439.2852478027344,8.076666831970215,251.98785400390625,0.026334639638662338,0.626514732837677,2.204207420349121,2.204207420349121,0.0,0.0,8.076666831970215,7.798740386962891,0.27792683243751526,0.1507926732301712,0.1507926732301712,6.0655694007873535,4.481228828430176,66.22525024414062,-12.0,-19.59024429321289,-11.507926940917969,-8.0,0.0,662.256103515625,125.01219177246094,21.08026695251465,3.9792613983154297,0.9948153495788574,22.07508087158203,63.24079513549805,2.9844465255737305,0.046385619789361954,195.90243530273438,311.80487060546875,485.6097412109375,380.5853576660156,154.06097412109375,77.91463470458984,230.15850830078125,1.0
env_steps,50000,83,83,77,49998,0.8021466666666667,0.3801311254501343,1.7439167499542236,1.7383034229278564,0.6942387819290161,6.1485748291015625,5750,14.85435962677002,0.4790084660053253,0.0,600.0,0.5813403725624084,2.2187752723693848,439.61041259765625,8.08387565612793,250.68902587890625,0.026160970330238342,0.6217917799949646,2.2187752723693848,2.2187752723693848,0.0,0.0,8.08387565612793,7.809137344360352,0.27473896741867065,0.14909638464450836,0.14909638464450836,6.044980049133301,4.459365367889404,65.95917510986328,-12.0,-19.59518051147461,-11.509638786315918,-8.0,0.0,659.48193359375,124.96385192871094,20.991962432861328,3.9777228832244873,0.9944307208061218,21.986391067504883,62.97587966918945,2.9832923412323,0.046615201979875565,195.95181274414062,313.0722961425781,486.1084289550781,380.5060119628906,154.2168731689453,77.9277114868164,230.1927490234375,1.0
env_steps,50512,84,84,78,50510,0.8001199999999999,0.3603050708770752,1.5778664350509644,1.5022169351577759,0.6522395014762878,4.6247100830078125,5814,15.006359100341797,0.47972026467323303,0.0,600.0,0.5809167623519897,2.22269868850708,439.2541809082031,8.107063293457031,250.26022338867188,0.026183951646089554,0.6217551231384277,2.22269868850708,2.22269868850708,0.0,0.0,8.107063293457031,7.827778339385986,0.279285728931427,0.1535317450761795,0.1535317450761795,6.070099353790283,4.462817668914795,66.05953216552734,-12.0,-19.55476188659668,-11.4984130859375,-8.0,0.0,660.4404907226562,125.33333587646484,21.02247428894043,3.9894838333129883,0.9973709583282471,22.01984405517578,63.06741714477539,2.9921131134033203,0.04665625840425491,195.54762268066406,312.8214416503906,486.0952453613281,380.297607421875,153.75,77.92857360839844,229.96823120117188,1.0
env_steps,51008,85,85,79,51006,0.7981566666666666,0.31501349806785583,1.7163236141204834,1.6800800561904907,0.5964930057525635,5.9006218910217285,5876,15.305572509765625,0.48162591457366943,0.0,600.0,0.5791915655136108,2.2459218502044678,440.7584228515625,8.132137298583984,248.9556121826172,0.026210661977529526,0.6206709742546082,2.2459218502044678,2.2459218502044678,0.0,0.0,8.132137298583984,7.855059623718262,0.27707844972610474,0.15262745320796967,0.15262745320796967,6.066823482513428,4.439380168914795,66.33812713623047,-12.0,-19.538822174072266,-11.493725776672363,-8.0,0.0,663.1647338867188,126.10588073730469,21.109188079833984,4.014074802398682,1.0035187005996704,22.112707138061523,63.32756042480469,3.010556221008301,0.04670514166355133,195.3882293701172,311.51763916015625,485.6823425292969,380.1176452636719,153.64706420898438,77.92941284179688,229.87449645996094,1.0
env_steps,51504,85,85,79,51502,0.7961933333333333,0.19881053268909454,1.2799937725067139,1.3365752696990967,0.46289166808128357,4.5276055335998535,5938,15.305572509765625,0.48162591457366943,0.0,600.0,0.5791915655136108,2.2459218502044678,440.7584228515625,8.132137298583984,248.9556121826172,0.026210661977529526,0.6206709742546082,2.2459218502044678,2.2459218502044678,0.0,0.0,8.132137298583984,7.855059623718262,0.27707844972610474,0.15262745320796967,0.15262745320796967,6.066823482513428,4.439380168914795,66.33812713623047,-12.0,-19.538822174072266,-11.493725776672363,-8.0,0.0,663.1647338867188,126.10588073730469,21.109188079833984,4.014074802398682,1.0035187005996704,22.112707138061523,63.32756042480469,3.010556221008301,0.04670514166355133,195.3882293701172,311.51763916015625,485.6823425292969,380.1176452636719,153.64706420898438,77.92941284179688,229.87449645996094,1.0
env_steps,52000,86,86,80,51998,0.79423,0.18659019470214844,1.6310511827468872,1.5892295837402344,0.45607590675354004,4.7611799240112305,6000,15.097474098205566,0.48050934076309204,0.0,600.0,0.57990562915802,2.2541861534118652,440.7191162109375,8.153507232666016,248.0269775390625,0.026193682104349136,0.6192452907562256,2.2541861534118652,2.2541861534118652,0.0,0.0,8.153507232666016,7.8785080909729,0.2750000059604645,0.15122093260288239,0.15122093260288239,6.059612274169922,4.431935787200928,66.09418487548828,-12.0,-19.504650115966797,-11.492053985595703,-8.0,0.0,660.6395263671875,125.98837280273438,21.028810501098633,4.010334014892578,1.0025835037231445,22.03139305114746,63.08642578125,3.0077507495880127,0.04687197133898735,195.0465087890625,311.906982421875,485.7790832519531,380.1278991699219,153.7906951904297,77.80232238769531,229.841064453125,1.0
env_steps,52512,87,87,81,52510,0.7922033333333334,0.19554495811462402,1.8914698362350464,1.9636420011520386,0.4646146595478058,8.023003578186035,6064,15.417989730834961,0.4822540581226349,0.0,600.0,0.5780786871910095,2.2625863552093506,440.39825439453125,8.190248489379883,247.09312438964844,0.026190519332885742,0.6187872886657715,2.2625863552093506,2.2625863552093506,0.0,0.0,8.190248489379883,7.906303405761719,0.28394636511802673,0.15567049384117126,0.15567049384117126,6.089023113250732,4.431173324584961,66.3656997680664,-12.0,-19.462068557739258,-11.485631942749023,-8.0,0.0,663.3563232421875,126.49425506591797,21.11528778076172,4.026436805725098,1.0066092014312744,22.121898651123047,63.34585952758789,3.0198276042938232,0.04685318097472191,194.62069702148438,311.1264343261719,485.2069091796875,380.0115051269531,153.72413635253906,77.7011489868164,229.71261596679688,1.0
env_steps,53008,88,88,82,53006,0.79024,0.34903258085250854,2.2660293579101562,2.299302101135254,0.6532419919967651,5.180749893188477,6126,15.785712242126465,0.4840022921562195,0.0,600.0,0.5763878226280212,2.2838823795318604,439.7787780761719,8.191629409790039,245.38299560546875,0.02618875913321972,0.6162768006324768,2.2838823795318604,2.2838823795318604,0.0,0.0,8.191629409790039,7.910909652709961,0.28071969747543335,0.15390151739120483,0.15390151739120483,6.066666126251221,4.404481887817383,66.69234466552734,-12.0,-19.430681228637695,-11.475946426391602,-8.0,0.0,666.5681762695312,127.32954406738281,21.217525482177734,4.053024768829346,1.0132561922073364,22.23077964782715,63.65257263183594,3.039768934249878,0.0468912236392498,194.30682373046875,310.31817626953125,484.5909118652344,379.8295593261719,153.38636779785156,77.67045593261719,229.51895141601562,1.0
env_steps,53504,89,89,83,53502,0.7882766666666667,0.3605198264122009,1.8826649188995361,1.8465267419815063,0.6403247117996216,4.59450101852417,6188,15.811666488647461,0.48440787196159363,0.0,600.0,0.5757258534431458,2.284531593322754,439.8000793457031,8.16314697265625,244.9885711669922,0.026129411533474922,0.6151435375213623,2.284531593322754,2.284531593322754,0.0,0.0,8.16314697265625,7.885581016540527,0.27756553888320923,0.1521722823381424,0.1521722823381424,6.046610355377197,4.387767791748047,66.69593811035156,-12.0,-19.405616760253906,-11.47865104675293,-8.0,0.0,666.550537109375,127.5505599975586,21.216964721679688,4.060060501098633,1.0150151252746582,22.231977462768555,63.6508903503418,3.0450453758239746,0.04695277288556099,194.05618286132812,310.39324951171875,484.6741638183594,379.88763427734375,153.1685333251953,77.83145904541016,229.57305908203125,1.0
env_steps,54000,90,90,84,54000,0.7863133333333333,0.4223009943962097,1.8260365724563599,2.155972480773926,0.7351519465446472,6.395098686218262,6250,16.103546142578125,0.48569777607917786,0.0,600.0,0.5745054483413696,2.316610813140869,439.4422607421875,8.189148902893066,243.20437622070312,0.026125555858016014,0.6126037240028381,2.316610813140869,2.316610813140869,0.0,0.0,8.189148902893066,7.91466760635376,0.27448147535324097,0.1504814773797989,0.1504814773797989,6.026592254638672,4.363430500030518,66.9559555053711,-12.0,-19.37999725341797,-11.472406387329102,-8.0,0.0,669.04443359375,128.46665954589844,21.29634666442871,4.089221000671387,1.0223052501678467,22.31865119934082,63.889041900634766,3.066915512084961,0.04704934358596802,193.8000030517578,309.73333740234375,484.1333312988281,379.6555480957031,152.86666870117188,77.9111099243164,229.44818115234375,1.0
env_steps,54512,90,90,84,54510,0.7842866666666667,0.2289370447397232,1.9071896076202393,1.9998302459716797,0.513177216053009,4.777913570404053,6314,16.103546142578125,0.48569777607917786,0.0,600.0,0.5745054483413696,2.316610813140869,439.4422607421875,8.189148902893066,243.20437622070312,0.026125555858016014,0.6126037240028381,2.316610813140869,2.316610813140869,0.0,0.0,8.189148902893066,7.91466760635376,0.27448147535324097,0.1504814773797989,0.1504814773797989,6.026592254638672,4.363430500030518,66.9559555053711,-12.0,-19.37999725341797,-11.472406387329102,-8.0,0.0,669.04443359375,128.46665954589844,21.29634666442871,4.089221000671387,1.0223052501678467,22.31865119934082,63.889041900634766,3.066915512084961,0.04704934358596802,193.8000030517578,309.73333740234375,484.1333312988281,379.6555480957031,152.86666870117188,77.9111099243164,229.44818115234375,1.0
env_steps,55008,91,91,85,55006,0.7823233333333334,0.45373228192329407,1.853236436843872,1.9722687005996704,0.7662324905395508,7.575751304626465,6376,16.357492446899414,0.48694393038749695,0.0,600.0,0.5732753276824951,2.3120694160461426,440.2148742675781,8.221667289733887,243.66729736328125,0.02611243911087513,0.6107906699180603,2.3120694160461426,2.3120694160461426,0.0,0.0,8.221667289733887,7.931008338928223,0.2906593382358551,0.15732601284980774,0.15732601284980774,6.065073013305664,4.38491153717041,67.18350219726562,-12.0,-19.359338760375977,-11.466665267944336,-8.0,0.0,671.3516235351562,128.76922607421875,21.369789123535156,4.098851680755615,1.0247129201889038,22.394498825073242,64.10936737060547,3.074138641357422,0.04699917137622833,193.59339904785156,309.20880126953125,483.80218505859375,379.6483459472656,152.63735961914062,77.85713958740234,229.33335876464844,1.0
env_steps,55504,92,92,86,55502,0.78036,0.2737809717655182,1.63259756565094,1.821618914604187,0.5595595836639404,5.375729560852051,6438,16.532421112060547,0.4877956211566925,0.0,600.0,0.5731027722358704,2.3243656158447266,441.9942321777344,8.273189544677734,243.0979461669922,0.02610383927822113,0.6095887422561646,2.3243656158447266,2.3243656158447266,0.0,0.0,8.273189544677734,7.957699775695801,0.31548911333084106,0.16317029297351837,0.16317029297351837,6.112988471984863,4.3837056159973145,67.33966827392578,-12.0,-19.346736907958984,-11.460506439208984,-8.0,0.0,672.8369750976562,129.36956787109375,21.417068481445312,4.1179609298706055,1.0294902324676514,22.44655418395996,64.2511978149414,3.088470458984375,0.047073788940906525,193.46739196777344,309.4130554199219,483.7173767089844,379.5108642578125,152.4891357421875,77.81521606445312,229.21017456054688,1.0
env_steps,56000,93,93,87,55998,0.7783966666666666,0.2723585367202759,2.034125328063965,2.1216282844543457,0.5444363355636597,6.187201499938965,6500,16.393707275390625,0.4873645007610321,0.0,600.0,0.5738285183906555,2.3346590995788574,443.6047058105469,8.29141616821289,242.7618865966797,0.026023129001259804,0.6083499789237976,2.3346590995788574,2.3346590995788574,0.0,0.0,8.29141616821289,7.976363182067871,0.3150537610054016,0.16351254284381866,0.16351254284381866,6.12971305847168,4.378326416015625,67.19496154785156,-12.0,-19.337631225585938,-11.463619232177734,-8.0,0.0,671.268798828125,129.5806427001953,21.367151260375977,4.124680042266846,1.0311700105667114,22.398319244384766,64.10145568847656,3.0935094356536865,0.04727747663855553,193.3763427734375,310.18280029296875,483.93548583984375,379.56988525390625,152.3763427734375,77.93548583984375,229.27243041992188,1.0
env_steps,56512,94,94,88,56510,0.77637,0.3348739743232727,1.9386553764343262,1.8695213794708252,0.6364752054214478,6.2638678550720215,6564,16.4182186126709,0.4874042272567749,0.0,600.0,0.5738131403923035,2.3527655601501465,446.3910827636719,8.36315631866455,242.09747314453125,0.026046380400657654,0.6100690960884094,2.3527655601501465,2.3527655601501465,0.0,0.0,8.36315631866455,8.011969566345215,0.35118791460990906,0.1722872257232666,0.1722872257232666,6.188616752624512,4.375184535980225,67.201904296875,-12.0,-19.322338104248047,-11.461346626281738,-8.0,0.0,671.2553100585938,129.925537109375,21.366722106933594,4.135658264160156,1.033914566040039,22.400634765625,64.10016632080078,3.10174298286438,0.047380927950143814,193.22340393066406,310.3829650878906,483.9468078613281,379.67022705078125,152.47872924804688,77.76596069335938,229.2269744873047,1.0
env_steps,57008,95,95,89,57006,0.7744066666666667,0.305228590965271,1.9374713897705078,1.9968584775924683,0.5934582948684692,5.748879909515381,6626,16.61851692199707,0.48829156160354614,0.0,600.0,0.5721691846847534,2.3516311645507812,445.9255065917969,8.389878273010254,242.2023162841797,0.026038508862257004,0.6109573245048523,2.3516311645507812,2.3516311645507812,0.0,0.0,8.389878273010254,8.03142261505127,0.3584561347961426,0.17610526084899902,0.17610526084899902,6.2130351066589355,4.400430679321289,67.35395050048828,-12.0,-19.281051635742188,-11.454385757446289,-8.0,0.0,672.7052612304688,130.49473571777344,21.41287612915039,4.1537766456604,1.0384441614151,22.451318740844727,64.2386245727539,3.1153316497802734,0.04744850844144821,192.81053161621094,309.6842041015625,483.5789489746094,379.4631652832031,152.4105224609375,77.69474029541016,229.08775329589844,1.0
env_steps,57504,95,95,89,57502,0.7724433333333334,0.23960840702056885,1.7539448738098145,1.678958773612976,0.5160869359970093,6.667634010314941,6688,16.61851692199707,0.48829156160354614,0.0,600.0,0.5721691846847534,2.3516311645507812,445.9255065917969,8.389878273010254,242.2023162841797,0.026038508862257004,0.6109573245048523,2.3516311645507812,2.3516311645507812,0.0,0.0,8.389878273010254,8.03142261505127,0.3584561347961426,0.17610526084899902,0.17610526084899902,6.2130351066589355,4.400430679321289,67.35395050048828,-12.0,-19.281051635742188,-11.454385757446289,-8.0,0.0,672.7052612304688,130.49473571777344,21.41287612915039,4.1537766456604,1.0384441614151,22.451318740844727,64.2386245727539,3.1153316497802734,0.04744850844144821,192.81053161621094,309.6842041015625,483.5789489746094,379.4631652832031,152.4105224609375,77.69474029541016,229.08775329589844,1.0
env_steps,58000,96,96,90,57998,0.77048,0.36921408772468567,1.8175667524337769,1.9023728370666504,0.6491914987564087,4.85971212387085,6750,16.773540496826172,0.48925521969795227,0.0,600.0,0.5712007880210876,2.3485591411590576,446.647216796875,8.398749351501465,242.7977294921875,0.026079850271344185,0.6123394966125488,2.3485591411590576,2.3485591411590576,0.0,0.0,8.398749351501465,8.036649703979492,0.3621006906032562,0.18095485866069794,0.18095485866069794,6.230226039886475,4.408034801483154,67.50183868408203,-12.0,-19.269792556762695,-11.458507537841797,-8.0,0.0,674.15625,130.8854217529297,21.459060668945312,4.16621208190918,1.041553020477295,22.500612258911133,64.3771743774414,3.124659299850464,0.047466546297073364,192.6979217529297,309.5,483.4270935058594,379.5208435058594,152.4479217529297,77.77083587646484,229.17015075683594,1.0
env_steps,58512,97,97,91,58510,0.7684533333333333,0.3767285645008087,1.9001293182373047,1.8450427055358887,0.6547724604606628,6.590789794921875,6814,16.853565216064453,0.48965567350387573,0.0,600.0,0.5701322555541992,2.350738763809204,447.3025817871094,8.37761116027832,242.45751953125,0.02608761563897133,0.6110706329345703,2.350738763809204,2.350738763809204,0.0,0.0,8.37761116027832,8.019244194030762,0.3583676815032959,0.17908933758735657,0.17908933758735657,6.206529140472412,4.390589237213135,67.56078338623047,-12.0,-19.25154685974121,-11.455671310424805,-8.0,0.0,674.6701049804688,131.29896545410156,21.475418090820312,4.179375648498535,1.0448439121246338,22.520261764526367,64.4262466430664,3.1345322132110596,0.04755198955535889,192.5154571533203,308.42266845703125,483.0412292480469,379.4020690917969,152.41236877441406,77.76288604736328,229.1134033203125,1.0
env_steps,59008,98,98,92,59006,0.76649,0.41050082445144653,1.5597351789474487,1.444050908088684,0.685308575630188,6.159801006317139,6876,17.11338996887207,0.49079081416130066,0.0,600.0,0.5696967244148254,2.360765218734741,448.04833984375,8.442941665649414,241.62811279296875,0.026128927245736122,0.6120302677154541,2.360765218734741,2.360765218734741,0.0,0.0,8.442941665649414,8.070918083190918,0.3720237910747528,0.18153059482574463,0.18153059482574463,6.238401412963867,4.3939313888549805,67.8263168334961,-12.0,-19.258163452148438,-11.454763412475586,-8.0,0.0,677.4081420898438,131.46939086914062,21.562572479248047,4.184800624847412,1.046200156211853,22.60877227783203,64.68770599365234,3.1386005878448486,0.04745202139019966,192.58163452148438,308.2550964355469,482.8163146972656,379.4183654785156,152.43878173828125,77.71428680419922,229.09524536132812,1.0
env_steps,59504,99,99,93,59502,0.7645266666666667,0.3048831522464752,1.7530289888381958,1.7988908290863037,0.5934543609619141,6.2241010665893555,6938,17.51383399963379,0.492936372756958,0.0,600.0,0.5685641169548035,2.368501663208008,447.6666564941406,8.46119499206543,240.63043212890625,0.026135122403502464,0.6126230359077454,2.368501663208008,2.368501663208008,0.0,0.0,8.46119499206543,8.09249210357666,0.368703693151474,0.18006733059883118,0.18006733059883118,6.235555648803711,4.3865838050842285,68.24178314208984,-12.0,-19.272727966308594,-11.455220222473145,-8.0,0.0,681.5454711914062,132.32322692871094,21.69426727294922,4.211978912353516,1.052994728088379,22.74726104736328,65.08279418945312,3.158984661102295,0.04745075851678848,192.72727966308594,307.5252380371094,482.4141540527344,379.404052734375,152.3333282470703,77.78787994384766,229.10438537597656,1.0
env_steps,60000,100,100,94,60000,0.7625633333333334,0.3156413435935974,2.143186092376709,2.1385514736175537,0.6135197281837463,7.689432621002197,7000,17.598011016845703,0.4933140277862549,0.0,600.0,0.5669050812721252,2.368483304977417,446.2906494140625,8.443833351135254,239.6371612548828,0.026053929701447487,0.6103047132492065,2.368483304977417,2.368483304977417,0.0,0.0,8.443833351135254,8.078816413879395,0.3650166690349579,0.17826665937900543,0.17826665937900543,6.225500106811523,4.372216701507568,68.28368377685547,-12.0,-19.2450008392334,-11.440668106079102,-8.0,0.0,681.97998046875,132.33999633789062,21.708097457885742,4.212512969970703,1.0531282424926758,22.7612247467041,65.1242904663086,3.1593847274780273,0.047417912632226944,192.4499969482422,307.1099853515625,482.20001220703125,378.9599914550781,152.13999938964844,77.66999816894531,228.81333923339844,1.0
env_steps,60512,100,100,94,60510,0.7605366666666666,0.4722851812839508,2.3351588249206543,2.459301471710205,0.7790074348449707,7.495375156402588,7064,17.598011016845703,0.4933140277862549,0.0,600.0,0.5669050812721252,2.368483304977417,446.2906494140625,8.443833351135254,239.6371612548828,0.026053929701447487,0.6103047132492065,2.368483304977417,2.368483304977417,0.0,0.0,8.443833351135254,8.078816413879395,0.3650166690349579,0.17826665937900543,0.17826665937900543,6.225500106811523,4.372216701507568,68.28368377685547,-12.0,-19.2450008392334,-11.440668106079102,-8.0,0.0,681.97998046875,132.33999633789062,21.708097457885742,4.212512969970703,1.0531282424926758,22.7612247467041,65.1242904663086,3.1593847274780273,0.047417912632226944,192.4499969482422,307.1099853515625,482.20001220703125,378.9599914550781,152.13999938964844,77.66999816894531,228.81333923339844,1.0
